;FLAVOR:Marlin
;TIME:1599
;Filament used: 1.28225m
;Layer height: 0.2
;MINX:96.5
;MINY:96.5
;MINZ:0.2
;MAXX:138.5
;MAXY:138.5
;MAXZ:20
;Generated with Cura_SteamEngine main
M82 ;absolute extrusion mode
; Ender 3 Custom Start G-code
G92 E0 ; Reset Extruder
G28 ; Home all axes
M104 S175 ; Start heating up the nozzle most of the way
M190 S60 ; Start heating the bed, wait until target temperature reached
M109 S200 ; Finish heating the nozzle
G1 Z2.0 F3000 ; Move Z Axis up little to prevent scratching of Heat Bed
G1 X0.1 Y20 Z0.3 F5000.0 ; Move to start position
G1 X0.1 Y200.0 Z0.3 F1500.0 E15 ; Draw the first line
G1 X0.4 Y200.0 Z0.3 F5000.0 ; Move to side a little
G1 X0.4 Y20 Z0.3 F1500.0 E30 ; Draw the second line
G92 E0 ; Reset Extruder
G1 Z2.0 F3000 ; Move Z Axis up little to prevent scratching of Heat Bed
G1 X5 Y20 Z0.3 F5000.0 ; Move over to prevent blob squish
G92 E0
G92 E0
G1 F1500 E-6.5
;LAYER_COUNT:100
;LAYER:0
M107
G0 F6000 X99.698 Y99.764 Z0.2
G0 X96.501 Y108.025
;TYPE:SKIRT
G1 F1500 E0
G1 F1200 X96.51 Y107.36 E0.02212
G1 X96.563 Y106.424 E0.0533
G1 X96.695 Y105.495 E0.08451
G1 X96.906 Y104.581 E0.11571
G1 X97.194 Y103.689 E0.14689
G1 X97.557 Y102.824 E0.17809
G1 X97.992 Y101.993 E0.20928
G1 X98.496 Y101.203 E0.24045
G1 X99.066 Y100.458 E0.27165
G1 X99.698 Y99.764 E0.30287
G1 X100.386 Y99.127 E0.33405
G1 X101.126 Y98.551 E0.36524
G1 X101.912 Y98.039 E0.39644
G1 X102.739 Y97.597 E0.42763
G1 X103.601 Y97.227 E0.45883
G1 X104.491 Y96.931 E0.49003
G1 X105.403 Y96.713 E0.52122
G1 X106.33 Y96.572 E0.5524
G1 X107.201 Y96.513 E0.58144
G1 X107.83 Y96.5 E0.60236
G1 X126.951 Y96.501 E1.23833
G1 X127.649 Y96.511 E1.26155
G1 X128.585 Y96.565 E1.29273
G1 X129.513 Y96.697 E1.32391
G1 X130.427 Y96.909 E1.35511
G1 X131.319 Y97.198 E1.3863
G1 X132.184 Y97.561 E1.4175
G1 X133.014 Y97.997 E1.44868
G1 X133.805 Y98.502 E1.4799
G1 X134.549 Y99.073 E1.51109
G1 X135.242 Y99.705 E1.54229
G1 X135.879 Y100.393 E1.57347
G1 X136.454 Y101.134 E1.60467
G1 X136.965 Y101.92 E1.63585
G1 X137.407 Y102.748 E1.66707
G1 X137.776 Y103.61 E1.69825
G1 X138.071 Y104.5 E1.72944
G1 X138.289 Y105.412 E1.76063
G1 X138.429 Y106.34 E1.79184
G1 X138.487 Y107.201 E1.82054
G1 X138.5 Y107.83 E1.84147
G1 X138.499 Y126.9 E2.47574
G1 X138.49 Y127.627 E2.49992
G1 X138.439 Y128.564 E2.53113
G1 X138.307 Y129.492 E2.56231
G1 X138.098 Y130.406 E2.59349
G1 X137.811 Y131.299 E2.62469
G1 X137.449 Y132.165 E2.65591
G1 X137.015 Y132.996 E2.68709
G1 X136.511 Y133.787 E2.71828
G1 X135.942 Y134.532 E2.74946
G1 X135.311 Y135.227 E2.78069
G1 X134.624 Y135.865 E2.81187
G1 X133.885 Y136.442 E2.84305
G1 X133.099 Y136.954 E2.87425
G1 X132.273 Y137.397 E2.90543
G1 X131.411 Y137.769 E2.93665
G1 X130.522 Y138.065 E2.96782
G1 X129.61 Y138.285 E2.99902
G1 X128.683 Y138.426 E3.03021
G1 X127.799 Y138.487 E3.05968
G1 X127.17 Y138.5 E3.0806
G1 X108.065 Y138.499 E3.71604
G1 X107.367 Y138.49 E3.73926
G1 X106.431 Y138.438 E3.77044
G1 X105.502 Y138.306 E3.80165
G1 X104.588 Y138.096 E3.83284
G1 X103.695 Y137.809 E3.86403
G1 X102.83 Y137.446 E3.89524
G1 X101.999 Y137.012 E3.92642
G1 X101.208 Y136.508 E3.95761
G1 X100.463 Y135.938 E3.98881
G1 X99.769 Y135.307 E4.02001
G1 X99.132 Y134.62 E4.05117
G1 X98.555 Y133.88 E4.08238
G1 X98.043 Y133.094 E4.11358
G1 X97.6 Y132.267 E4.14478
G1 X97.229 Y131.406 E4.17597
G1 X96.933 Y130.516 E4.20716
G1 X96.714 Y129.604 E4.23836
G1 X96.573 Y128.677 E4.26954
G1 X96.513 Y127.788 E4.29918
G1 X96.5 Y127.158 E4.32014
G1 X96.501 Y108.025 E4.9565
G0 F6000 X96.901 Y108.031
G1 F1200 X96.91 Y107.366 E4.97862
G1 X96.962 Y106.446 E5.00927
G1 X97.094 Y105.535 E5.03989
G1 X97.305 Y104.639 E5.0705
G1 X97.592 Y103.764 E5.10113
G1 X97.955 Y102.918 E5.13175
G1 X98.389 Y102.106 E5.16237
G1 X98.892 Y101.335 E5.19299
G1 X99.461 Y100.611 E5.22362
G1 X100.089 Y99.939 E5.25421
G1 X100.774 Y99.323 E5.28485
G1 X101.51 Y98.77 E5.31547
G1 X102.291 Y98.282 E5.3461
G1 X103.111 Y97.864 E5.37671
G1 X103.965 Y97.519 E5.40735
G1 X104.845 Y97.249 E5.43796
G1 X105.745 Y97.057 E5.46857
G1 X106.659 Y96.943 E5.49921
G1 X107.212 Y96.913 E5.51763
G1 X107.83 Y96.9 E5.53819
G1 X126.793 Y96.9 E6.1689
G1 X127.643 Y96.911 E6.19717
G1 X128.562 Y96.964 E6.22779
G1 X129.473 Y97.097 E6.25841
G1 X130.369 Y97.308 E6.28903
G1 X131.243 Y97.596 E6.31963
G1 X132.09 Y97.959 E6.35028
G1 X132.901 Y98.394 E6.38089
G1 X133.671 Y98.898 E6.4115
G1 X134.395 Y99.467 E6.44213
G1 X135.067 Y100.097 E6.47276
G1 X135.682 Y100.782 E6.50338
G1 X136.235 Y101.518 E6.534
G1 X136.722 Y102.299 E6.56461
G1 X137.139 Y103.12 E6.59524
G1 X137.484 Y103.974 E6.62588
G1 X137.753 Y104.854 E6.65648
G1 X137.945 Y105.755 E6.68712
G1 X138.058 Y106.668 E6.71772
G1 X138.087 Y107.212 E6.73584
G1 X138.1 Y107.83 E6.7564
G1 X138.099 Y126.895 E7.3905
G1 X138.09 Y127.622 E7.41468
G1 X138.039 Y128.541 E7.4453
G1 X137.908 Y129.453 E7.47594
G1 X137.698 Y130.349 E7.50655
G1 X137.412 Y131.224 E7.53717
G1 X137.051 Y132.071 E7.56779
G1 X136.617 Y132.883 E7.59841
G1 X136.115 Y133.655 E7.62904
G1 X135.547 Y134.38 E7.65968
G1 X134.919 Y135.053 E7.69029
G1 X134.235 Y135.669 E7.72091
G1 X133.5 Y136.223 E7.75152
G1 X132.72 Y136.712 E7.78214
G1 X131.9 Y137.131 E7.81277
G1 X131.047 Y137.477 E7.84338
G1 X130.167 Y137.748 E7.87401
G1 X129.267 Y137.941 E7.90462
G1 X128.353 Y138.056 E7.93526
G1 X127.788 Y138.087 E7.95408
G1 X127.17 Y138.1 E7.97464
G1 X108.07 Y138.099 E8.60991
G1 X107.372 Y138.09 E8.63313
G1 X106.453 Y138.038 E8.66374
G1 X105.542 Y137.907 E8.69435
G1 X104.646 Y137.697 E8.72496
G1 X103.771 Y137.41 E8.75559
G1 X102.924 Y137.048 E8.78623
G1 X102.112 Y136.614 E8.81685
G1 X101.341 Y136.112 E8.84745
G1 X100.616 Y135.544 E8.87808
G1 X99.943 Y134.915 E8.90872
G1 X99.328 Y134.231 E8.93932
G1 X98.774 Y133.496 E8.96993
G1 X98.286 Y132.715 E9.00056
G1 X97.867 Y131.895 E9.03119
G1 X97.521 Y131.042 E9.0618
G1 X97.251 Y130.162 E9.09242
G1 X97.058 Y129.261 E9.12307
G1 X96.944 Y128.348 E9.15367
G1 X96.913 Y127.777 E9.17269
G1 X96.9 Y127.158 E9.19328
G1 X96.901 Y108.031 E9.82945
G0 F6000 X97.301 Y108.036
G1 F1200 X97.31 Y107.371 E9.85157
G1 X97.362 Y106.469 E9.88162
G1 X97.494 Y105.576 E9.91164
G1 X97.704 Y104.698 E9.94167
G1 X97.991 Y103.841 E9.97173
G1 X98.353 Y103.014 E10.00175
G1 X98.786 Y102.222 E10.03177
G1 X99.288 Y101.471 E10.06182
G1 X99.855 Y100.767 E10.09188
G1 X100.481 Y100.117 E10.1219
G1 X101.162 Y99.524 E10.15193
G1 X101.894 Y98.994 E10.18199
G1 X102.669 Y98.531 E10.21202
G1 X103.482 Y98.138 E10.24205
G1 X104.327 Y97.818 E10.2721
G1 X105.196 Y97.575 E10.30212
G1 X106.084 Y97.409 E10.33216
G1 X107.223 Y97.313 E10.37018
G1 X107.83 Y97.3 E10.39037
G1 X126.793 Y97.3 E11.02109
G1 X127.637 Y97.311 E11.04916
G1 X128.539 Y97.364 E11.07921
G1 X129.432 Y97.496 E11.10924
G1 X130.31 Y97.707 E11.13927
G1 X131.166 Y97.995 E11.16931
G1 X131.993 Y98.357 E11.19933
G1 X132.785 Y98.792 E11.22939
G1 X133.536 Y99.294 E11.25943
G1 X134.239 Y99.861 E11.28947
G1 X134.889 Y100.488 E11.31951
G1 X135.481 Y101.17 E11.34955
G1 X136.011 Y101.901 E11.37958
G1 X136.473 Y102.677 E11.40962
G1 X136.866 Y103.49 E11.43965
G1 X137.184 Y104.335 E11.46968
G1 X137.427 Y105.205 E11.49972
G1 X137.592 Y106.093 E11.52976
G1 X137.687 Y107.223 E11.56748
G1 X137.7 Y107.83 E11.58767
G1 X137.699 Y126.89 E12.22161
G1 X137.69 Y127.617 E12.24579
G1 X137.639 Y128.519 E12.27584
G1 X137.508 Y129.413 E12.30589
G1 X137.299 Y130.291 E12.33591
G1 X137.013 Y131.148 E12.36596
G1 X136.652 Y131.976 E12.39601
G1 X136.22 Y132.768 E12.42601
G1 X135.719 Y133.52 E12.45607
G1 X135.153 Y134.224 E12.48611
G1 X134.528 Y134.875 E12.51613
G1 X133.847 Y135.469 E12.54618
G1 X133.116 Y136 E12.57623
G1 X132.342 Y136.464 E12.60625
G1 X131.529 Y136.858 E12.6363
G1 X130.685 Y137.178 E12.66632
G1 X129.815 Y137.423 E12.69638
G1 X128.928 Y137.589 E12.72639
G1 X127.777 Y137.687 E12.76481
G1 X127.17 Y137.7 E12.78501
G1 X108.075 Y137.699 E13.42011
G1 X107.377 Y137.69 E13.44333
G1 X106.476 Y137.639 E13.47334
G1 X105.582 Y137.507 E13.5034
G1 X104.704 Y137.298 E13.53342
G1 X103.847 Y137.011 E13.56348
G1 X103.02 Y136.65 E13.59349
G1 X102.227 Y136.217 E13.62354
G1 X101.476 Y135.716 E13.65357
G1 X100.772 Y135.15 E13.68361
G1 X100.121 Y134.524 E13.71365
G1 X99.528 Y133.843 E13.74368
G1 X98.998 Y133.112 E13.77372
G1 X98.534 Y132.337 E13.80376
G1 X98.14 Y131.524 E13.83381
G1 X97.82 Y130.68 E13.86383
G1 X97.576 Y129.81 E13.89388
G1 X97.41 Y128.922 E13.92393
G1 X97.313 Y127.767 E13.96248
G1 X97.3 Y127.158 E13.98274
G1 X97.301 Y108.036 E14.61874
G1 F1500 E8.11874
;MESH:2cmcube.stl
G0 F6000 X106.835 Y108.036
G0 X108.1 Y126.9
;TYPE:WALL-INNER
G1 F1500 E14.61874
G1 F1200 X126.9 Y126.9 E15.24403
G1 X126.9 Y117.5 E15.55668
G1 X126.9 Y108.1 E15.86932
G1 X108.1 Y108.1 E16.49461
G1 X108.1 Y126.9 E17.1199
G0 F6000 X107.7 Y127.3
;TYPE:WALL-OUTER
G1 F1200 X127.3 Y127.3 E17.7718
G1 X127.3 Y117.5 E18.09775
G1 X127.3 Y107.7 E18.4237
G1 X107.7 Y107.7 E19.0756
G1 X107.7 Y127.3 E19.7275
G0 F6000 X107.97 Y127.03
G0 X108.2 Y126.5
G0 X108.5 Y126.5
;TYPE:SKIN
G1 F1200 X126.5 Y126.5 E20.32618
G1 X126.5 Y108.5 E20.92486
G1 X108.5 Y108.5 E21.52354
G1 X108.5 Y117.5 E21.82288
G1 X108.5 Y126.5 E22.12223
G0 F6000 X108.9 Y126.1
G1 F1200 X126.1 Y126.1 E22.6943
G1 X126.1 Y117.5 E22.98034
G1 X126.1 Y108.9 E23.26637
G1 X108.9 Y108.9 E23.83845
G1 X108.9 Y126.1 E24.41052
G0 F6000 X109.3 Y125.7
G1 F1200 X125.7 Y125.7 E24.95599
G1 X125.7 Y117.5 E25.22872
G1 X125.7 Y109.3 E25.50146
G1 X109.3 Y109.3 E26.04692
G1 X109.3 Y125.7 E26.59239
G0 F6000 X109.7 Y125.3
G1 F1200 X125.3 Y125.3 E27.11125
G1 X125.3 Y117.5 E27.37068
G1 X125.3 Y109.7 E27.6301
G1 X109.7 Y109.7 E28.14896
G1 X109.7 Y125.3 E28.66782
G0 F6000 X110.1 Y124.9
G1 F1200 X124.9 Y124.9 E29.16007
G1 X124.9 Y117.5 E29.4062
G1 X124.9 Y110.1 E29.65232
G1 X110.1 Y110.1 E30.14457
G1 X110.1 Y124.9 E30.63682
G0 F6000 X110.5 Y124.5
G1 F1200 X124.5 Y124.5 E31.10246
G1 X124.5 Y117.5 E31.33528
G1 X124.5 Y110.5 E31.5681
G1 X110.5 Y110.5 E32.03375
G1 X110.5 Y124.5 E32.49939
G0 F6000 X110.9 Y124.1
G1 F1200 X124.1 Y124.1 E32.93842
G1 X124.1 Y117.5 E33.15794
G1 X124.1 Y110.9 E33.37746
G1 X110.9 Y110.9 E33.81649
G1 X110.9 Y124.1 E34.25552
G0 F6000 X111.3 Y123.7
G1 F1200 X123.7 Y123.7 E34.66795
G1 X123.7 Y117.5 E34.87416
G1 X123.7 Y111.3 E35.08037
G1 X111.3 Y111.3 E35.4928
G1 X111.3 Y123.7 E35.90523
G0 F6000 X111.7 Y123.3
G1 F1200 X123.3 Y123.3 E36.29104
G1 X123.3 Y117.5 E36.48395
G1 X123.3 Y111.7 E36.67686
G1 X111.7 Y111.7 E37.06268
G1 X111.7 Y123.3 E37.4485
G0 F6000 X112.1 Y122.9
G1 F1200 X122.9 Y122.9 E37.80771
G1 X122.9 Y117.5 E37.98731
G1 X122.9 Y112.1 E38.16691
G1 X112.1 Y112.1 E38.52612
G1 X112.1 Y122.9 E38.88533
G0 F6000 X112.5 Y122.5
G1 F1200 X122.5 Y122.5 E39.21794
G1 X122.5 Y112.5 E39.55054
G1 X112.5 Y112.5 E39.88314
G1 X112.5 Y122.5 E40.21574
G0 F6000 X112.9 Y122.1
G1 F1200 X122.1 Y122.1 E40.52173
G1 X122.1 Y117.5 E40.67473
G1 X122.1 Y112.9 E40.82773
G1 X112.9 Y112.9 E41.13372
G1 X112.9 Y122.1 E41.43971
G0 F6000 X113.3 Y121.7
G1 F1200 X121.7 Y121.7 E41.7191
G1 X121.7 Y117.5 E41.85879
G1 X121.7 Y113.3 E41.99848
G1 X113.3 Y113.3 E42.27787
G1 X113.3 Y121.7 E42.55725
G0 F6000 X113.7 Y121.3
G1 F1200 X121.3 Y121.3 E42.81003
G1 X121.3 Y117.5 E42.93642
G1 X121.3 Y113.7 E43.06281
G1 X113.7 Y113.7 E43.31558
G1 X113.7 Y121.3 E43.56836
G0 F6000 X114.1 Y120.9
G1 F1200 X120.9 Y120.9 E43.79453
G1 X120.9 Y117.5 E43.90761
G1 X120.9 Y114.1 E44.0207
G1 X114.1 Y114.1 E44.24687
G1 X114.1 Y120.9 E44.47304
G0 F6000 X114.5 Y120.5
G1 F1200 X120.5 Y120.5 E44.6726
G1 X120.5 Y114.5 E44.87216
G1 X114.5 Y114.5 E45.07172
G1 X114.5 Y120.5 E45.27128
G0 F6000 X114.9 Y120.1
G1 F1200 X120.1 Y120.1 E45.44423
G1 X120.1 Y117.5 E45.53071
G1 X120.1 Y114.9 E45.61719
G1 X114.9 Y114.9 E45.79014
G1 X114.9 Y120.1 E45.96309
G0 F6000 X115.3 Y119.7
G1 F1200 X119.7 Y119.7 E46.10944
G1 X119.7 Y117.5 E46.18261
G1 X119.7 Y115.3 E46.25578
G1 X115.3 Y115.3 E46.40212
G1 X115.3 Y119.7 E46.54847
G0 F6000 X115.7 Y119.3
G1 F1200 X119.3 Y119.3 E46.66821
G1 X119.3 Y115.7 E46.78794
G1 X115.7 Y115.7 E46.90768
G1 X115.7 Y119.3 E47.02741
G0 F6000 X116.1 Y118.9
G1 F1200 X118.9 Y118.9 E47.12054
G1 X118.9 Y117.5 E47.16711
G1 X118.9 Y116.1 E47.21367
G1 X116.1 Y116.1 E47.3068
G1 X116.1 Y118.9 E47.39993
G0 F6000 X116.5 Y118.5
G1 F1200 X118.5 Y118.5 E47.46645
G1 X118.5 Y117.5 E47.49971
G1 X118.5 Y116.5 E47.53297
G1 X116.5 Y116.5 E47.59949
G1 X116.5 Y118.5 E47.66601
G0 F6000 X116.9 Y118.1
G1 F1200 X118.1 Y118.1 E47.70592
G1 X118.1 Y116.9 E47.74583
G1 X116.9 Y116.9 E47.78575
G1 X116.9 Y118.1 E47.82566
G0 F6000 X117.3 Y117.7
M104 S200
G1 F1200 X117.7 Y117.7 E47.83896
G1 X117.7 Y117.5 E47.84561
G1 X117.7 Y117.3 E47.85227
G1 X117.3 Y117.3 E47.86557
G1 X117.3 Y117.7 E47.87887
G1 F1500 E41.37887
;MESH:NONMESH
G0 F300 X117.3 Y117.7 Z0.4
G0 F6000 X108.3 Y117.7
G0 X108.1 Y126.9
;TIME_ELAPSED:81.968682
;LAYER:1
M106 S85
;TYPE:WALL-INNER
;MESH:2cmcube.stl
G1 F1500 E47.87887
G1 F1350 X126.9 Y126.9 E48.50416
G1 X126.9 Y117.5 E48.81681
G1 X126.9 Y108.1 E49.12946
G1 X108.1 Y108.1 E49.75475
G1 X108.1 Y126.9 E50.38004
G0 F7500 X107.7 Y127.3
;TYPE:WALL-OUTER
G1 F1350 X127.3 Y127.3 E51.03194
G1 X127.3 Y117.5 E51.35788
G1 X127.3 Y107.7 E51.68383
G1 X107.7 Y107.7 E52.33573
G1 X107.7 Y127.3 E52.98763
G0 F7500 X107.97 Y127.03
G0 X108.2 Y126.5
G0 X108.5 Y126.5
;TYPE:SKIN
G1 F1350 X126.5 Y126.5 E53.58631
G1 X126.5 Y117.5 E53.88565
G1 X126.5 Y108.5 E54.185
G1 X108.5 Y108.5 E54.78368
G1 X108.5 Y126.5 E55.38236
G0 F7500 X108.9 Y126.1
G1 F1350 X126.1 Y126.1 E55.95444
G1 X126.1 Y117.5 E56.24047
G1 X126.1 Y108.9 E56.52651
G1 X108.9 Y108.9 E57.09858
G1 X108.9 Y126.1 E57.67066
G0 F7500 X109.3 Y125.7
G1 F1350 X125.7 Y125.7 E58.21612
G1 X125.7 Y117.5 E58.48886
G1 X125.7 Y109.3 E58.76159
G1 X109.3 Y109.3 E59.30706
G1 X109.3 Y125.7 E59.85252
G0 F7500 X109.7 Y125.3
G1 F1350 X125.3 Y125.3 E60.37138
G1 X125.3 Y109.7 E60.89024
G1 X109.7 Y109.7 E61.4091
G1 X109.7 Y125.3 E61.92796
G0 F7500 X110.1 Y124.9
G1 F1350 X124.9 Y124.9 E62.42021
G1 X124.9 Y117.5 E62.66633
G1 X124.9 Y110.1 E62.91246
G1 X110.1 Y110.1 E63.40471
G1 X110.1 Y124.9 E63.89696
G0 F7500 X110.5 Y124.5
G1 F1350 X124.5 Y124.5 E64.3626
G1 X124.5 Y117.5 E64.59542
G1 X124.5 Y110.5 E64.82824
G1 X110.5 Y110.5 E65.29388
G1 X110.5 Y124.5 E65.75952
G0 F7500 X110.9 Y124.1
G1 F1350 X124.1 Y124.1 E66.19856
G1 X124.1 Y117.5 E66.41807
G1 X124.1 Y110.9 E66.63759
G1 X110.9 Y110.9 E67.07662
G1 X110.9 Y124.1 E67.51566
G0 F7500 X111.3 Y123.7
G1 F1350 X123.7 Y123.7 E67.92808
G1 X123.7 Y117.5 E68.1343
G1 X123.7 Y111.3 E68.34051
G1 X111.3 Y111.3 E68.75294
G1 X111.3 Y123.7 E69.16536
G0 F7500 X111.7 Y123.3
G1 F1350 X123.3 Y123.3 E69.55118
G1 X123.3 Y117.5 E69.74409
G1 X123.3 Y111.7 E69.937
G1 X111.7 Y111.7 E70.32281
G1 X111.7 Y123.3 E70.70863
G0 F7500 X112.1 Y122.9
G1 F1350 X122.9 Y122.9 E71.06784
G1 X122.9 Y117.5 E71.24745
G1 X122.9 Y112.1 E71.42705
G1 X112.1 Y112.1 E71.78626
G1 X112.1 Y122.9 E72.14547
G0 F7500 X112.5 Y122.5
G1 F1350 X122.5 Y122.5 E72.47807
G1 X122.5 Y117.5 E72.64437
G1 X122.5 Y112.5 E72.81067
G1 X112.5 Y112.5 E73.14327
G1 X112.5 Y122.5 E73.47587
G0 F7500 X112.9 Y122.1
G1 F1350 X122.1 Y122.1 E73.78187
G1 X122.1 Y117.5 E73.93486
G1 X122.1 Y112.9 E74.08786
G1 X112.9 Y112.9 E74.39385
G1 X112.9 Y122.1 E74.69985
G0 F7500 X113.3 Y121.7
G1 F1350 X121.7 Y121.7 E74.97923
G1 X121.7 Y117.5 E75.11893
G1 X121.7 Y113.3 E75.25862
G1 X113.3 Y113.3 E75.538
G1 X113.3 Y121.7 E75.81739
G0 F7500 X113.7 Y121.3
G1 F1350 X121.3 Y121.3 E76.07016
G1 X121.3 Y117.5 E76.19655
G1 X121.3 Y113.7 E76.32294
G1 X113.7 Y113.7 E76.57572
G1 X113.7 Y121.3 E76.8285
G0 F7500 X114.1 Y120.9
G1 F1350 X120.9 Y120.9 E77.05466
G1 X120.9 Y117.5 E77.16775
G1 X120.9 Y114.1 E77.28083
