;FLAVOR:Marlin
;TIME:3016
;Filament used: 1.46464m
;Layer height: 0.12
;MINX:96.5
;MINY:96.5
;MINZ:0.12
;MAXX:138.5
;MAXY:138.5
;MAXZ:20.04
;Generated with Cura_SteamEngine main
M82 ;absolute extrusion mode
; Ender 3 Custom Start G-code
G92 E0 ; Reset Extruder
G28 ; Home all axes
M104 S175 ; Start heating up the nozzle most of the way
M190 S60 ; Start heating the bed, wait until target temperature reached
M109 S200 ; Finish heating the nozzle
G1 Z2.0 F3000 ; Move Z Axis up little to prevent scratching of Heat Bed
G1 X0.1 Y20 Z0.3 F5000.0 ; Move to start position
G1 X0.1 Y200.0 Z0.3 F1500.0 E15 ; Draw the first line
G1 X0.4 Y200.0 Z0.3 F5000.0 ; Move to side a little
G1 X0.4 Y20 Z0.3 F1500.0 E30 ; Draw the second line
G92 E0 ; Reset Extruder
G1 Z2.0 F3000 ; Move Z Axis up little to prevent scratching of Heat Bed
G1 X5 Y20 Z0.3 F5000.0 ; Move over to prevent blob squish
G92 E0
G92 E0
G1 F1500 E-6.5
;LAYER_COUNT:167
;LAYER:0
M107
G0 F6000 X99.698 Y99.764 Z0.12
G0 X96.501 Y108.025
;TYPE:SKIRT
G1 F1500 E0
G1 F1200 X96.51 Y107.36 E0.01327
G1 X96.563 Y106.424 E0.03198
G1 X96.695 Y105.495 E0.05071
G1 X96.906 Y104.581 E0.06943
G1 X97.194 Y103.689 E0.08813
G1 X97.557 Y102.824 E0.10685
G1 X97.992 Y101.993 E0.12557
G1 X98.496 Y101.203 E0.14427
G1 X99.066 Y100.458 E0.16299
G1 X99.698 Y99.764 E0.18172
G1 X100.386 Y99.127 E0.20043
G1 X101.126 Y98.551 E0.21915
G1 X101.912 Y98.039 E0.23787
G1 X102.739 Y97.597 E0.25658
G1 X103.601 Y97.227 E0.2753
G1 X104.491 Y96.931 E0.29402
G1 X105.403 Y96.713 E0.31273
G1 X106.33 Y96.572 E0.33144
G1 X107.201 Y96.513 E0.34886
G1 X107.83 Y96.5 E0.36142
G1 X126.951 Y96.501 E0.743
G1 X127.649 Y96.511 E0.75693
G1 X128.585 Y96.565 E0.77564
G1 X129.513 Y96.697 E0.79434
G1 X130.427 Y96.909 E0.81307
G1 X131.319 Y97.198 E0.83178
G1 X132.184 Y97.561 E0.8505
G1 X133.014 Y97.997 E0.86921
G1 X133.805 Y98.502 E0.88794
G1 X134.549 Y99.073 E0.90665
G1 X135.242 Y99.705 E0.92537
G1 X135.879 Y100.393 E0.94408
G1 X136.454 Y101.134 E0.9628
G1 X136.965 Y101.92 E0.98151
G1 X137.407 Y102.748 E1.00024
G1 X137.776 Y103.61 E1.01895
G1 X138.071 Y104.5 E1.03766
G1 X138.289 Y105.412 E1.05638
G1 X138.429 Y106.34 E1.0751
G1 X138.487 Y107.201 E1.09233
G1 X138.5 Y107.83 E1.10488
G1 X138.499 Y126.9 E1.48544
G1 X138.49 Y127.627 E1.49995
G1 X138.439 Y128.564 E1.51868
G1 X138.307 Y129.492 E1.53738
G1 X138.098 Y130.406 E1.55609
G1 X137.811 Y131.299 E1.57481
G1 X137.449 Y132.165 E1.59354
G1 X137.015 Y132.996 E1.61225
G1 X136.511 Y133.787 E1.63097
G1 X135.942 Y134.532 E1.64968
G1 X135.311 Y135.227 E1.66841
G1 X134.624 Y135.865 E1.68712
G1 X133.885 Y136.442 E1.70583
G1 X133.099 Y136.954 E1.72455
G1 X132.273 Y137.397 E1.74326
G1 X131.411 Y137.769 E1.76199
G1 X130.522 Y138.065 E1.78069
G1 X129.61 Y138.285 E1.79941
G1 X128.683 Y138.426 E1.81812
G1 X127.799 Y138.487 E1.83581
G1 X127.17 Y138.5 E1.84836
G1 X108.065 Y138.499 E2.22962
G1 X107.367 Y138.49 E2.24355
G1 X106.431 Y138.438 E2.26226
G1 X105.502 Y138.306 E2.28099
G1 X104.588 Y138.096 E2.2997
G1 X103.695 Y137.809 E2.31842
G1 X102.83 Y137.446 E2.33714
G1 X101.999 Y137.012 E2.35585
G1 X101.208 Y136.508 E2.37457
G1 X100.463 Y135.938 E2.39329
G1 X99.769 Y135.307 E2.41201
G1 X99.132 Y134.62 E2.4307
G1 X98.555 Y133.88 E2.44943
G1 X98.043 Y133.094 E2.46815
G1 X97.6 Y132.267 E2.48687
G1 X97.229 Y131.406 E2.50558
G1 X96.933 Y130.516 E2.5243
G1 X96.714 Y129.604 E2.54301
G1 X96.573 Y128.677 E2.56173
G1 X96.513 Y127.788 E2.57951
G1 X96.5 Y127.158 E2.59208
G1 X96.501 Y108.025 E2.9739
G0 F6000 X96.901 Y108.031
G1 F1200 X96.91 Y107.366 E2.98717
G1 X96.962 Y106.446 E3.00556
G1 X97.094 Y105.535 E3.02393
G1 X97.305 Y104.639 E3.0423
G1 X97.592 Y103.764 E3.06068
G1 X97.955 Y102.918 E3.07905
G1 X98.389 Y102.106 E3.09742
G1 X98.892 Y101.335 E3.1158
G1 X99.461 Y100.611 E3.13417
G1 X100.089 Y99.939 E3.15253
G1 X100.774 Y99.323 E3.17091
G1 X101.51 Y98.77 E3.18928
G1 X102.291 Y98.282 E3.20766
G1 X103.111 Y97.864 E3.22603
G1 X103.965 Y97.519 E3.24441
G1 X104.845 Y97.249 E3.26278
G1 X105.745 Y97.057 E3.28114
G1 X106.659 Y96.943 E3.29952
G1 X107.212 Y96.913 E3.31058
G1 X107.83 Y96.9 E3.32291
G1 X126.793 Y96.9 E3.70134
G1 X127.643 Y96.911 E3.7183
G1 X128.562 Y96.964 E3.73667
G1 X129.473 Y97.097 E3.75505
G1 X130.369 Y97.308 E3.77342
G1 X131.243 Y97.596 E3.79178
G1 X132.09 Y97.959 E3.81017
G1 X132.901 Y98.394 E3.82853
G1 X133.671 Y98.898 E3.8469
G1 X134.395 Y99.467 E3.86528
G1 X135.067 Y100.097 E3.88366
G1 X135.682 Y100.782 E3.90203
G1 X136.235 Y101.518 E3.9204
G1 X136.722 Y102.299 E3.93877
G1 X137.139 Y103.12 E3.95714
G1 X137.484 Y103.974 E3.97553
G1 X137.753 Y104.854 E3.99389
G1 X137.945 Y105.755 E4.01227
G1 X138.058 Y106.668 E4.03063
G1 X138.087 Y107.212 E4.0415
G1 X138.1 Y107.83 E4.05384
G1 X138.099 Y126.895 E4.4343
G1 X138.09 Y127.622 E4.44881
G1 X138.039 Y128.541 E4.46718
G1 X137.908 Y129.453 E4.48557
G1 X137.698 Y130.349 E4.50393
G1 X137.412 Y131.224 E4.5223
G1 X137.051 Y132.071 E4.54068
G1 X136.617 Y132.883 E4.55905
G1 X136.115 Y133.655 E4.57743
G1 X135.547 Y134.38 E4.59581
G1 X134.919 Y135.053 E4.61417
G1 X134.235 Y135.669 E4.63254
G1 X133.5 Y136.223 E4.65091
G1 X132.72 Y136.712 E4.66928
G1 X131.9 Y137.131 E4.68766
G1 X131.047 Y137.477 E4.70603
G1 X130.167 Y137.748 E4.72441
G1 X129.267 Y137.941 E4.74277
G1 X128.353 Y138.056 E4.76116
G1 X127.788 Y138.087 E4.77245
G1 X127.17 Y138.1 E4.78479
G1 X108.07 Y138.099 E5.16595
G1 X107.372 Y138.09 E5.17988
G1 X106.453 Y138.038 E5.19825
G1 X105.542 Y137.907 E5.21661
G1 X104.646 Y137.697 E5.23498
G1 X103.771 Y137.41 E5.25335
G1 X102.924 Y137.048 E5.27174
G1 X102.112 Y136.614 E5.29011
G1 X101.341 Y136.112 E5.30847
G1 X100.616 Y135.544 E5.32685
G1 X99.943 Y134.915 E5.34523
G1 X99.328 Y134.231 E5.36359
G1 X98.774 Y133.496 E5.38196
G1 X98.286 Y132.715 E5.40034
G1 X97.867 Y131.895 E5.41871
G1 X97.521 Y131.042 E5.43708
G1 X97.251 Y130.162 E5.45545
G1 X97.058 Y129.261 E5.47384
G1 X96.944 Y128.348 E5.4922
G1 X96.913 Y127.777 E5.50361
G1 X96.9 Y127.158 E5.51597
G1 X96.901 Y108.031 E5.89767
G0 F6000 X97.301 Y108.036
G1 F1200 X97.31 Y107.371 E5.91094
G1 X97.362 Y106.469 E5.92897
G1 X97.494 Y105.576 E5.94698
G1 X97.704 Y104.698 E5.965
G1 X97.991 Y103.841 E5.98304
G1 X98.353 Y103.014 E6.00105
G1 X98.786 Y102.222 E6.01906
G1 X99.288 Y101.471 E6.03709
G1 X99.855 Y100.767 E6.05513
G1 X100.481 Y100.117 E6.07314
G1 X101.162 Y99.524 E6.09116
G1 X101.894 Y98.994 E6.10919
G1 X102.669 Y98.531 E6.12721
G1 X103.482 Y98.138 E6.14523
G1 X104.327 Y97.818 E6.16326
G1 X105.196 Y97.575 E6.18127
G1 X106.084 Y97.409 E6.1993
G1 X107.223 Y97.313 E6.22211
G1 X107.83 Y97.3 E6.23422
G1 X126.793 Y97.3 E6.61265
G1 X127.637 Y97.311 E6.6295
G1 X128.539 Y97.364 E6.64753
G1 X129.432 Y97.496 E6.66554
G1 X130.31 Y97.707 E6.68356
G1 X131.166 Y97.995 E6.70159
G1 X131.993 Y98.357 E6.7196
G1 X132.785 Y98.792 E6.73763
G1 X133.536 Y99.294 E6.75566
G1 X134.239 Y99.861 E6.77368
G1 X134.889 Y100.488 E6.79171
G1 X135.481 Y101.17 E6.80973
G1 X136.011 Y101.901 E6.82775
G1 X136.473 Y102.677 E6.84577
G1 X136.866 Y103.49 E6.86379
G1 X137.184 Y104.335 E6.88181
G1 X137.427 Y105.205 E6.89983
G1 X137.592 Y106.093 E6.91786
G1 X137.687 Y107.223 E6.94049
G1 X137.7 Y107.83 E6.9526
G1 X137.699 Y126.89 E7.33297
G1 X137.69 Y127.617 E7.34748
G1 X137.639 Y128.519 E7.36551
G1 X137.508 Y129.413 E7.38354
G1 X137.299 Y130.291 E7.40155
G1 X137.013 Y131.148 E7.41958
G1 X136.652 Y131.976 E7.4376
G1 X136.22 Y132.768 E7.45561
G1 X135.719 Y133.52 E7.47364
G1 X135.153 Y134.224 E7.49167
G1 X134.528 Y134.875 E7.50968
G1 X133.847 Y135.469 E7.52771
G1 X133.116 Y136 E7.54574
G1 X132.342 Y136.464 E7.56375
G1 X131.529 Y136.858 E7.58178
G1 X130.685 Y137.178 E7.59979
G1 X129.815 Y137.423 E7.61783
G1 X128.928 Y137.589 E7.63584
G1 X127.777 Y137.687 E7.65889
G1 X127.17 Y137.7 E7.671
G1 X108.075 Y137.699 E8.05207
G1 X107.377 Y137.69 E8.066
G1 X106.476 Y137.639 E8.08401
G1 X105.582 Y137.507 E8.10204
G1 X104.704 Y137.298 E8.12005
G1 X103.847 Y137.011 E8.13809
G1 X103.02 Y136.65 E8.15609
G1 X102.227 Y136.217 E8.17412
G1 X101.476 Y135.716 E8.19214
G1 X100.772 Y135.15 E8.21017
G1 X100.121 Y134.524 E8.22819
G1 X99.528 Y133.843 E8.24621
G1 X98.998 Y133.112 E8.26423
G1 X98.534 Y132.337 E8.28226
G1 X98.14 Y131.524 E8.30028
G1 X97.82 Y130.68 E8.3183
G1 X97.576 Y129.81 E8.33633
G1 X97.41 Y128.922 E8.35436
G1 X97.313 Y127.767 E8.37749
G1 X97.3 Y127.158 E8.38964
G1 X97.301 Y108.036 E8.77124
G1 F1500 E2.27124
;MESH:2cmcube.stl
G0 F6000 X106.835 Y108.036
G0 X107.92 Y108.036
G0 X108.5 Y126.5
;TYPE:WALL-INNER
G1 F1500 E8.77124
G1 F1200 X126.5 Y126.5 E9.13045
G1 X126.5 Y117.5 E9.31006
G1 X126.5 Y108.5 E9.48966
G1 X108.5 Y108.5 E9.84887
G1 X108.5 Y126.5 E10.20808
G0 F6000 X108.1 Y126.9
G1 F1200 X126.9 Y126.9 E10.58326
G1 X126.9 Y117.5 E10.77084
G1 X126.9 Y108.1 E10.95843
G1 X108.1 Y108.1 E11.3336
G1 X108.1 Y126.9 E11.70878
G0 F6000 X107.7 Y127.3
;TYPE:WALL-OUTER
G1 F1200 X127.3 Y127.3 E12.09992
G1 X127.3 Y117.5 E12.29549
G1 X127.3 Y107.7 E12.49106
G1 X107.7 Y107.7 E12.8822
G1 X107.7 Y127.3 E13.27334
G0 F6000 X107.97 Y127.03
G0 X108.6 Y126.14
G0 X108.86 Y126.14
;TYPE:SKIN
G1 F1200 X126.14 Y126.14 E13.61818
G1 X126.14 Y108.86 E13.96302
G1 X108.86 Y108.86 E14.30786
G1 X108.86 Y126.14 E14.6527
G0 F6000 X109.534 Y125.939
G1 F1200 X109.059 Y125.464 E14.66611
G0 F6000 X109.059 Y124.899
G1 F1200 X110.1 Y125.939 E14.69547
G0 F6000 X110.665 Y125.939
G1 F1200 X109.059 Y124.333 E14.7408
G0 F6000 X109.059 Y123.767
G1 F1200 X111.231 Y125.939 E14.80209
G0 F6000 X111.797 Y125.939
G1 F1200 X109.059 Y123.202 E14.87935
G0 F6000 X109.059 Y122.636
G1 F1200 X112.362 Y125.939 E14.97257
G0 F6000 X112.928 Y125.939
G1 F1200 X109.059 Y122.07 E15.08176
G0 F6000 X109.059 Y121.504
G1 F1200 X113.494 Y125.939 E15.20693
G0 F6000 X114.059 Y125.939
G1 F1200 X109.059 Y120.939 E15.34804
G0 F6000 X109.059 Y120.373
G1 F1200 X114.625 Y125.939 E15.50512
G0 F6000 X115.191 Y125.939
G1 F1200 X109.059 Y119.807 E15.67818
G0 F6000 X109.059 Y119.242
G1 F1200 X115.756 Y125.939 E15.86718
G0 F6000 X116.322 Y125.939
G1 F1200 X109.059 Y118.676 E16.07216
G0 F6000 X109.059 Y118.11
G1 F1200 X116.888 Y125.939 E16.29311
G0 F6000 X117.453 Y125.939
G1 F1200 X109.059 Y117.545 E16.53001
G0 F6000 X109.059 Y116.979
G1 F1200 X118.019 Y125.939 E16.78288
G0 F6000 X118.585 Y125.939
G1 F1200 X109.059 Y116.413 E17.05172
G0 F6000 X109.059 Y115.848
G1 F1200 X119.151 Y125.939 E17.33653
G0 F6000 X119.716 Y125.939
G1 F1200 X109.059 Y115.282 E17.63729
G0 F6000 X109.059 Y114.716
G1 F1200 X120.282 Y125.939 E17.95403
G0 F6000 X120.848 Y125.939
G1 F1200 X109.059 Y114.151 E18.28673
G0 F6000 X109.059 Y113.585
G1 F1200 X121.413 Y125.939 E18.63538
G0 F6000 X121.979 Y125.939
G1 F1200 X109.059 Y113.019 E19.00001
G0 F6000 X109.059 Y112.454
G1 F1200 X122.545 Y125.939 E19.3806
G0 F6000 X123.11 Y125.939
G1 F1200 X109.059 Y111.888 E19.77715
G0 F6000 X109.059 Y111.322
G1 F1200 X123.676 Y125.939 E20.18968
G0 F6000 X124.242 Y125.939
G1 F1200 X109.059 Y110.756 E20.61817
G0 F6000 X109.059 Y110.191
G1 F1200 X124.807 Y125.939 E21.06262
G0 F6000 X125.373 Y125.939
G1 F1200 X109.059 Y109.625 E21.52303
G0 F6000 X109.059 Y109.059
G1 F1200 X125.939 Y125.939 E21.99942
G0 F6000 X125.939 Y125.374
G1 F1200 X109.626 Y109.06 E22.45982
G0 F6000 X110.191 Y109.06
G1 F1200 X125.939 Y124.808 E22.90427
G0 F6000 X125.939 Y124.242
G1 F1200 X110.757 Y109.06 E23.33274
G0 F6000 X111.323 Y109.06
G1 F1200 X125.939 Y123.677 E23.74524
G0 F6000 X125.939 Y123.111
G1 F1200 X111.889 Y109.06 E24.14178
G0 F6000 X112.454 Y109.06
G1 F1200 X125.939 Y122.545 E24.52236
G0 F6000 X125.939 Y121.98
G1 F1200 X113.02 Y109.06 E24.88697
G0 F6000 X113.586 Y109.06
G1 F1200 X125.939 Y121.414 E25.23561
G0 F6000 X125.939 Y120.848
G1 F1200 X114.151 Y109.06 E25.5683
G0 F6000 X114.717 Y109.06
G1 F1200 X125.939 Y120.283 E25.88502
G0 F6000 X125.939 Y119.717
G1 F1200 X115.283 Y109.06 E26.18577
G0 F6000 X115.848 Y109.06
G1 F1200 X125.939 Y119.151 E26.47056
G0 F6000 X125.939 Y118.586
G1 F1200 X116.414 Y109.06 E26.73939
G0 F6000 X116.98 Y109.06
G1 F1200 X125.939 Y118.02 E26.99225
G0 F6000 X125.939 Y117.454
G1 F1200 X117.545 Y109.06 E27.22914
G0 F6000 X118.111 Y109.06
G1 F1200 X125.939 Y116.888 E27.45007
G0 F6000 X125.939 Y116.323
G1 F1200 X118.677 Y109.06 E27.65503
G0 F6000 X119.242 Y109.06
G1 F1200 X125.939 Y115.757 E27.84403
G0 F6000 X125.939 Y115.191
G1 F1200 X119.808 Y109.06 E28.01706
G0 F6000 X120.374 Y109.06
G1 F1200 X125.939 Y114.626 E28.17413
G0 F6000 X125.939 Y114.06
G1 F1200 X120.94 Y109.06 E28.31523
G0 F6000 X121.505 Y109.06
G1 F1200 X125.939 Y113.494 E28.44037
G0 F6000 X125.939 Y112.929
G1 F1200 X122.071 Y109.06 E28.54955
G0 F6000 X122.637 Y109.06
G1 F1200 X125.939 Y112.363 E28.64275
G0 F6000 X125.939 Y111.797
G1 F1200 X123.202 Y109.06 E28.71999
G0 F6000 X123.768 Y109.06
G1 F1200 X125.939 Y111.232 E28.78128
G0 F6000 X125.939 Y110.666
G1 F1200 X124.334 Y109.06 E28.82659
G0 F6000 X124.899 Y109.06
G1 F1200 X125.939 Y110.1 E28.85594
G0 F6000 X125.939 Y109.535
M104 S200
G1 F1200 X125.465 Y109.06 E28.86933
G1 F1500 E22.36933
;MESH:NONMESH
G0 F300 X125.465 Y109.06 Z0.24
G0 F6000 X125.465 Y108.6
G0 X108.672 Y108.672
G0 X108.5 Y126.5
;TIME_ELAPSED:84.181690
;LAYER:1
M106 S85
;TYPE:WALL-INNER
;MESH:2cmcube.stl
G1 F1500 E28.86933
G1 F1350 X126.5 Y126.5 E29.22854
G1 X126.5 Y117.5 E29.40815
G1 X126.5 Y108.5 E29.58775
G1 X108.5 Y108.5 E29.94696
G1 X108.5 Y126.5 E30.30617
G0 F7500 X108.1 Y126.9
G1 F1350 X126.9 Y126.9 E30.68134
G1 X126.9 Y117.5 E30.86893
G1 X126.9 Y108.1 E31.05652
G1 X108.1 Y108.1 E31.43169
G1 X108.1 Y126.9 E31.80687
G0 F7500 X107.7 Y127.3
;TYPE:WALL-OUTER
G1 F1350 X127.3 Y127.3 E32.19801
G1 X127.3 Y117.5 E32.39357
G1 X127.3 Y107.7 E32.58914
G1 X107.7 Y107.7 E32.98028
G1 X107.7 Y127.3 E33.37142
G0 F7500 X107.97 Y127.03
G0 X108.6 Y126.14
G0 X108.86 Y126.14
;TYPE:SKIN
G1 F1350 X126.14 Y126.14 E33.71626
G1 X126.14 Y117.5 E33.88868
G1 X126.14 Y108.86 E34.0611
G1 X108.86 Y108.86 E34.40595
G1 X108.86 Y126.14 E34.75079
G0 F7500 X108.6 Y126.14
G0 X108.6 Y109.293
G0 X109.06 Y109.293
G1 F1350 X109.294 Y109.059 E34.75739
G0 F7500 X109.86 Y109.059
G1 F1350 X109.06 Y109.859 E34.77997
G0 F7500 X109.06 Y110.425
G1 F1350 X110.426 Y109.059 E34.81852
G0 F7500 X110.991 Y109.059
G1 F1350 X109.06 Y110.991 E34.87303
G0 F7500 X109.06 Y111.556
G1 F1350 X111.557 Y109.059 E34.9435
G0 F7500 X112.123 Y109.059
G1 F1350 X109.06 Y112.122 E35.02995
G0 F7500 X109.06 Y112.688
G1 F1350 X112.688 Y109.059 E35.13235
G0 F7500 X113.254 Y109.059
G1 F1350 X109.06 Y113.253 E35.25071
G0 F7500 X109.06 Y113.819
G1 F1350 X113.82 Y109.059 E35.38505
G0 F7500 X114.385 Y109.059
G1 F1350 X109.06 Y114.385 E35.53535
G0 F7500 X109.06 Y114.95
G1 F1350 X114.951 Y109.059 E35.70161
G0 F7500 X115.517 Y109.059
G1 F1350 X109.06 Y115.516 E35.88384
G0 F7500 X109.06 Y116.082
G1 F1350 X116.082 Y109.059 E36.08203
G0 F7500 X116.648 Y109.059
G1 F1350 X109.06 Y116.647 E36.29618
G0 F7500 X109.06 Y117.213
G1 F1350 X117.214 Y109.059 E36.5263
G0 F7500 X117.779 Y109.059
G1 F1350 X109.06 Y117.779 E36.77238
G0 F7500 X109.06 Y118.344
G1 F1350 X118.345 Y109.059 E37.03443
G0 F7500 X118.911 Y109.059
G1 F1350 X109.06 Y118.91 E37.31244
G0 F7500 X109.06 Y119.476
G1 F1350 X119.477 Y109.059 E37.60643
G0 F7500 X120.042 Y109.059
G1 F1350 X109.06 Y120.041 E37.91637
G0 F7500 X109.06 Y120.607
G1 F1350 X120.608 Y109.059 E38.24228
G0 F7500 X121.174 Y109.059
G1 F1350 X109.06 Y121.173 E38.58416
G0 F7500 X109.06 Y121.739
G1 F1350 X121.739 Y109.059 E38.942
G0 F7500 X122.305 Y109.059
G1 F1350 X109.06 Y122.304 E39.31581
G0 F7500 X109.06 Y122.87
G1 F1350 X122.871 Y109.059 E39.70558
G0 F7500 X123.436 Y109.059
G1 F1350 X109.06 Y123.436 E40.11132
G0 F7500 X109.06 Y124.001
