;FLAVOR:Marlin
;TIME:1719
;Filament used: 0.707062m
;Layer height: 0.2
;MINX:91.508
;MINY:91.509
;MINZ:0.2
;MAXX:143.492
;MAXY:143.492
;MAXZ:30.108
;Generated with Cura_SteamEngine main
M82 ;absolute extrusion mode
; Ender 3 Custom Start G-code
G92 E0 ; Reset Extruder
G28 ; Home all axes
M104 S175 ; Start heating up the nozzle most of the way
M190 S60 ; Start heating the bed, wait until target temperature reached
M109 S200 ; Finish heating the nozzle
G1 Z2.0 F3000 ; Move Z Axis up little to prevent scratching of Heat Bed
G1 X0.1 Y20 Z0.3 F5000.0 ; Move to start position
G1 X0.1 Y200.0 Z0.3 F1500.0 E15 ; Draw the first line
G1 X0.4 Y200.0 Z0.3 F5000.0 ; Move to side a little
G1 X0.4 Y20 Z0.3 F1500.0 E30 ; Draw the second line
G92 E0 ; Reset Extruder
G1 Z2.0 F3000 ; Move Z Axis up little to prevent scratching of Heat Bed
G1 X5 Y20 Z0.3 F5000.0 ; Move over to prevent blob squish
G92 E0
G92 E0
G1 F1500 E-6.5
;LAYER_COUNT:150
;LAYER:0
M107
G0 F6000 X98.885 Y99.361 Z0.2
G0 X91.989 Y112.549
;TYPE:SKIRT
G1 F1500 E0
G1 F1200 X92.067 Y112.158 E0.01326
G1 X92.218 Y111.49 E0.03604
G1 X92.412 Y110.721 E0.06242
G1 X92.612 Y110.006 E0.08711
G1 X92.76 Y109.531 E0.10366
G1 X92.983 Y108.87 E0.12686
G1 X93.149 Y108.412 E0.14306
G1 X93.402 Y107.759 E0.16636
G1 X93.603 Y107.275 E0.18379
G1 X93.877 Y106.657 E0.20627
G1 X94.082 Y106.221 E0.2223
G1 X94.391 Y105.599 E0.2454
G1 X94.64 Y105.126 E0.26317
G1 X94.967 Y104.541 E0.28547
G1 X95.227 Y104.1 E0.30249
G1 X95.605 Y103.492 E0.3263
G1 X95.87 Y103.086 E0.34243
G1 X96.2 Y102.604 E0.36186
G1 X96.517 Y102.165 E0.37987
G1 X97.236 Y101.23 E0.4191
G1 X97.855 Y100.482 E0.45139
G1 X98.152 Y100.143 E0.46638
G1 X98.468 Y99.798 E0.48194
G1 X98.885 Y99.361 E0.50203
G1 X99.263 Y98.984 E0.51979
G1 X100.071 Y98.225 E0.55666
G1 X100.791 Y97.599 E0.58839
G1 X101.453 Y97.061 E0.61677
G1 X101.912 Y96.707 E0.63604
G1 X102.506 Y96.271 E0.66055
G1 X102.975 Y95.95 E0.67946
G1 X103.702 Y95.48 E0.70825
G1 X104.045 Y95.267 E0.72168
G1 X104.55 Y94.972 E0.74113
G1 X105.519 Y94.441 E0.77788
G1 X106.253 Y94.074 E0.80517
G1 X107.098 Y93.687 E0.83609
G1 X107.684 Y93.438 E0.85726
G1 X108.365 Y93.167 E0.88164
G1 X108.857 Y92.988 E0.89906
G1 X109.533 Y92.76 E0.92278
G1 X110.009 Y92.611 E0.93937
G1 X110.67 Y92.421 E0.96225
G1 X111.181 Y92.287 E0.97982
G1 X111.829 Y92.134 E1.00196
G1 X112.297 Y92.035 E1.01787
G1 X112.984 Y91.904 E1.04114
G1 X113.51 Y91.816 E1.05887
G1 X114.213 Y91.717 E1.08249
G1 X114.693 Y91.661 E1.09856
G1 X115.368 Y91.596 E1.12111
G1 X115.886 Y91.558 E1.13839
G1 X116.583 Y91.524 E1.1616
G1 X117.082 Y91.511 E1.1782
G1 X117.679 Y91.509 E1.19806
G1 X118.225 Y91.521 E1.21622
G1 X119.384 Y91.581 E1.25482
G1 X119.95 Y91.627 E1.27371
G1 X120.729 Y91.709 E1.29976
G1 X121.243 Y91.779 E1.31702
G1 X121.912 Y91.886 E1.33955
G1 X122.43 Y91.982 E1.35707
G1 X123.32 Y92.174 E1.38735
G1 X123.986 Y92.337 E1.41016
G1 X124.387 Y92.444 E1.42396
G1 X125.235 Y92.691 E1.45334
G1 X125.762 Y92.86 E1.47175
G1 X126.54 Y93.131 E1.49915
G1 X127.017 Y93.313 E1.51613
G1 X127.668 Y93.579 E1.53952
G1 X128.144 Y93.787 E1.5568
G1 X128.684 Y94.038 E1.5766
G1 X129.143 Y94.265 E1.59363
G1 X129.801 Y94.609 E1.61833
G1 X130.687 Y95.107 E1.65213
G1 X131.396 Y95.536 E1.6797
G1 X131.817 Y95.807 E1.69635
G1 X132.301 Y96.135 E1.71579
G1 X132.746 Y96.453 E1.73399
G1 X133.349 Y96.907 E1.75909
G1 X133.971 Y97.401 E1.78551
G1 X134.281 Y97.66 E1.79895
G1 X135.038 Y98.324 E1.83244
G1 X135.44 Y98.697 E1.85068
G1 X135.973 Y99.218 E1.87547
G1 X136.327 Y99.586 E1.89245
G1 X137.122 Y100.462 E1.9318
G1 X137.469 Y100.869 E1.94958
G1 X137.939 Y101.445 E1.97431
G1 X138.284 Y101.897 E1.99322
G1 X138.875 Y102.722 E2.02698
G1 X139.179 Y103.172 E2.04504
G1 X139.648 Y103.909 E2.07409
G1 X140.232 Y104.909 E2.11261
G1 X140.543 Y105.478 E2.13418
G1 X140.777 Y105.941 E2.15143
G1 X141.196 Y106.835 E2.18427
G1 X141.509 Y107.556 E2.21041
G1 X141.786 Y108.24 E2.23496
G1 X141.961 Y108.713 E2.25173
G1 X142.189 Y109.377 E2.27508
G1 X142.341 Y109.855 E2.29177
G1 X142.54 Y110.534 E2.3153
G1 X142.673 Y111.03 E2.33238
G1 X142.83 Y111.676 E2.35449
G1 X142.936 Y112.16 E2.37097
G1 X143.076 Y112.875 E2.3952
G1 X143.162 Y113.374 E2.41204
G1 X143.25 Y113.967 E2.43198
G1 X143.316 Y114.5 E2.44985
G1 X143.384 Y115.188 E2.47284
G1 X143.457 Y116.242 E2.50798
G1 X143.487 Y116.985 E2.53271
G1 X143.492 Y117.508 E2.55011
G1 X143.483 Y118.147 E2.57136
G1 X143.462 Y118.691 E2.58947
G1 X143.384 Y119.804 E2.62658
G1 X143.288 Y120.733 E2.65764
G1 X143.227 Y121.201 E2.67334
G1 X143.15 Y121.701 E2.69017
G1 X143.032 Y122.366 E2.71263
G1 X142.935 Y122.848 E2.72898
G1 X142.78 Y123.54 E2.75257
G1 X142.655 Y124.044 E2.76984
G1 X142.479 Y124.686 E2.79198
G1 X142.337 Y125.161 E2.80847
G1 X142.123 Y125.823 E2.83161
G1 X141.955 Y126.304 E2.84856
G1 X141.701 Y126.981 E2.87261
G1 X141.504 Y127.47 E2.89014
G1 X141.267 Y128.02 E2.91006
G1 X141.05 Y128.493 E2.92737
G1 X140.738 Y129.132 E2.95102
G1 X140.36 Y129.857 E2.97821
G1 X140.17 Y130.2 E2.99126
G1 X139.644 Y131.099 E3.0259
G1 X139.19 Y131.813 E3.05404
G1 X138.882 Y132.27 E3.07237
G1 X138.452 Y132.874 E3.09703
G1 X137.799 Y133.724 E3.13268
G1 X137.204 Y134.444 E3.16375
G1 X136.654 Y135.068 E3.19141
G1 X136.308 Y135.439 E3.20829
G1 X135.895 Y135.861 E3.22793
G1 X135.515 Y136.231 E3.24557
G1 X134.975 Y136.732 E3.27007
G1 X134.271 Y137.348 E3.30118
G1 X133.671 Y137.841 E3.32701
G1 X133.355 Y138.088 E3.34035
G1 X132.54 Y138.695 E3.37415
G1 X132.206 Y138.931 E3.38775
G1 X131.776 Y139.22 E3.40498
G1 X131.226 Y139.571 E3.42668
G1 X130.752 Y139.856 E3.44508
G1 X129.809 Y140.385 E3.48104
G1 X128.937 Y140.837 E3.51371
G1 X128.551 Y141.025 E3.52799
G1 X128.061 Y141.249 E3.54591
G1 X127.43 Y141.519 E3.56873
G1 X126.994 Y141.695 E3.58437
G1 X126.399 Y141.92 E3.60553
G1 X125.862 Y142.107 E3.62444
G1 X124.884 Y142.414 E3.65854
G1 X124.209 Y142.606 E3.68188
G1 X123.507 Y142.788 E3.706
G1 X122.982 Y142.905 E3.72389
G1 X122.039 Y143.086 E3.75583
G1 X121.252 Y143.215 E3.78235
G1 X120.578 Y143.309 E3.80498
G1 X120.046 Y143.365 E3.82278
G1 X119.002 Y143.443 E3.8576
G1 X118.314 Y143.475 E3.8805
G1 X117.509 Y143.492 E3.90728
G1 X117.024 Y143.488 E3.92342
G1 X116.37 Y143.468 E3.94518
G1 X115.852 Y143.44 E3.96243
G1 X115.133 Y143.384 E3.98642
G1 X114.629 Y143.333 E4.00327
G1 X113.946 Y143.248 E4.02616
G1 X113.45 Y143.175 E4.04283
G1 X112.795 Y143.063 E4.06494
G1 X112.3 Y142.966 E4.08171
G1 X111.6 Y142.813 E4.10554
G1 X111.103 Y142.692 E4.12256
G1 X110.416 Y142.508 E4.14621
G1 X109.914 Y142.361 E4.16361
G1 X109.288 Y142.161 E4.18547
G1 X108.847 Y142.01 E4.20097
G1 X108.272 Y141.799 E4.22134
G1 X107.743 Y141.589 E4.24027
G1 X107.08 Y141.306 E4.26425
G1 X106.238 Y140.919 E4.29507
G1 X105.537 Y140.569 E4.32113
G1 X104.559 Y140.035 E4.35819
G1 X104.006 Y139.71 E4.37953
G1 X103.014 Y139.076 E4.41868
G1 X102.386 Y138.647 E4.44398
G1 X101.99 Y138.358 E4.46029
G1 X101.433 Y137.932 E4.48361
G1 X101.034 Y137.612 E4.50062
G1 X100.523 Y137.182 E4.52283
G1 X100.149 Y136.852 E4.53942
G1 X99.611 Y136.356 E4.56376
G1 X99.248 Y136.006 E4.58053
G1 X98.779 Y135.532 E4.60271
G1 X98.423 Y135.156 E4.61993
G1 X97.998 Y134.684 E4.64106
G1 X97.648 Y134.274 E4.65899
G1 X97.016 Y133.49 E4.69248
G1 X96.555 Y132.884 E4.7178
G1 X96.127 Y132.291 E4.74213
G1 X95.842 Y131.87 E4.75904
G1 X95.46 Y131.276 E4.78253
G1 X95.209 Y130.866 E4.79852
G1 X94.861 Y130.269 E4.8215
G1 X94.618 Y129.83 E4.83819
G1 X94.305 Y129.232 E4.86064
G1 X94.068 Y128.751 E4.87847
G1 X93.776 Y128.12 E4.9016
G1 X93.575 Y127.658 E4.91836
G1 X93.31 Y127.009 E4.94167
G1 X93.132 Y126.542 E4.95829
G1 X92.898 Y125.885 E4.98149
G1 X92.736 Y125.395 E4.99866
G1 X92.541 Y124.754 E5.02094
G1 X92.412 Y124.295 E5.0368
G1 X92.239 Y123.623 E5.05988
G1 X92.119 Y123.106 E5.07753
G1 X91.98 Y122.433 E5.10039
G1 X91.892 Y121.953 E5.11662
G1 X91.781 Y121.262 E5.13989
G1 X91.711 Y120.748 E5.15715
G1 X91.635 Y120.073 E5.17974
G1 X91.59 Y119.573 E5.19644
G1 X91.544 Y118.882 E5.21947
G1 X91.522 Y118.379 E5.23622
G1 X91.508 Y117.705 E5.25864
G1 X91.51 Y117.198 E5.2755
G1 X91.526 Y116.567 E5.2965
G1 X91.554 Y116.013 E5.31495
G1 X91.645 Y114.885 E5.35259
G1 X91.698 Y114.401 E5.36878
G1 X91.808 Y113.596 E5.3958
G1 X91.989 Y112.549 E5.43114
G1 F1500 E-1.06886
G0 F6000 X91.908 Y117.697
G1 F1500 E5.43114
G1 F1200 X91.909 Y117.208 E5.44741
G1 X91.925 Y116.577 E5.4684
G1 X91.952 Y116.044 E5.48615
G1 X92.043 Y114.928 E5.52339
G1 X92.14 Y114.092 E5.55139
G1 X92.203 Y113.653 E5.56614
G1 X92.383 Y112.62 E5.60101
G1 X92.458 Y112.244 E5.61376
G1 X92.606 Y111.588 E5.63613
G1 X92.8 Y110.819 E5.66251
G1 X92.996 Y110.117 E5.68675
G1 X93.139 Y109.659 E5.70271
G1 X93.362 Y108.998 E5.72591
G1 X93.522 Y108.556 E5.74155
G1 X93.775 Y107.903 E5.76484
G1 X93.969 Y107.437 E5.78163
G1 X94.243 Y106.819 E5.80411
G1 X94.44 Y106.399 E5.81954
G1 X94.749 Y105.777 E5.84264
G1 X94.989 Y105.321 E5.85978
G1 X95.316 Y104.736 E5.88207
G1 X95.567 Y104.311 E5.89849
G1 X95.945 Y103.703 E5.9223
G1 X96.201 Y103.312 E5.93784
G1 X96.531 Y102.83 E5.95727
G1 X96.836 Y102.407 E5.97462
G1 X97.545 Y101.484 E6.01333
G1 X97.92 Y101.025 E6.03304
G1 X98.453 Y100.407 E6.06018
G1 X98.757 Y100.074 E6.07518
G1 X99.174 Y99.637 E6.09527
G1 X99.538 Y99.274 E6.11237
G1 X100.336 Y98.525 E6.14877
G1 X101.045 Y97.908 E6.18003
G1 X101.697 Y97.377 E6.208
G1 X102.156 Y97.023 E6.22728
G1 X102.74 Y96.596 E6.25134
G1 X103.192 Y96.286 E6.26957
G1 X103.919 Y95.816 E6.29836
G1 X104.25 Y95.611 E6.31131
G1 X104.745 Y95.321 E6.33039
G1 X105.7 Y94.798 E6.36661
G1 X106.422 Y94.436 E6.39347
G1 X107.255 Y94.055 E6.42394
G1 X108.124 Y93.69 E6.45529
G1 X108.51 Y93.539 E6.46907
G1 X108.984 Y93.367 E6.48584
G1 X109.66 Y93.139 E6.50957
G1 X110.12 Y92.996 E6.52559
G1 X110.781 Y92.806 E6.54847
G1 X111.273 Y92.677 E6.56539
G1 X111.921 Y92.524 E6.58753
G1 X112.372 Y92.428 E6.60287
G1 X113.059 Y92.297 E6.62613
G1 X113.566 Y92.213 E6.64322
G1 X114.269 Y92.114 E6.66683
G1 X114.731 Y92.059 E6.68231
G1 X115.406 Y91.994 E6.70486
G1 X115.906 Y91.958 E6.72154
G1 X116.603 Y91.924 E6.74475
G1 X117.083 Y91.911 E6.76072
G1 X117.68 Y91.909 E6.78057
G1 X118.207 Y91.92 E6.79811
G1 X118.984 Y91.956 E6.82398
G1 X119.918 Y92.026 E6.85513
G1 X120.684 Y92.107 E6.88075
G1 X121.18 Y92.174 E6.89739
G1 X121.849 Y92.281 E6.91993
G1 X122.348 Y92.373 E6.9368
G1 X123.225 Y92.563 E6.96665
G1 X124.278 Y92.828 E7.00277
G1 X125.113 Y93.072 E7.0317
G1 X125.64 Y93.241 E7.05011
G1 X126.406 Y93.508 E7.07709
G1 X126.865 Y93.684 E7.09344
G1 X127.516 Y93.95 E7.11683
G1 X127.975 Y94.15 E7.13348
G1 X128.515 Y94.401 E7.15329
G1 X128.958 Y94.619 E7.16971
G1 X129.616 Y94.963 E7.1944
G1 X130.489 Y95.454 E7.22772
G1 X131.187 Y95.877 E7.25486
G1 X131.593 Y96.138 E7.27092
G1 X132.077 Y96.466 E7.29036
G1 X132.506 Y96.773 E7.30791
G1 X133.109 Y97.227 E7.33301
G1 X133.72 Y97.712 E7.35896
G1 X134.503 Y98.382 E7.39323
G1 X135.168 Y98.991 E7.42323
G1 X135.691 Y99.501 E7.44752
G1 X136.032 Y99.856 E7.46389
G1 X136.559 Y100.43 E7.48981
G1 X137.164 Y101.129 E7.52056
G1 X137.627 Y101.697 E7.54493
G1 X137.96 Y102.132 E7.56315
G1 X138.544 Y102.946 E7.59647
G1 X138.848 Y103.396 E7.61454
G1 X139.309 Y104.121 E7.64311
G1 X139.885 Y105.108 E7.68112
G1 X140.19 Y105.667 E7.7023
G1 X140.416 Y106.113 E7.71893
G1 X140.829 Y106.994 E7.75129
G1 X141.142 Y107.715 E7.77744
G1 X141.414 Y108.387 E7.80155
G1 X141.582 Y108.843 E7.81771
G1 X141.81 Y109.507 E7.84106
G1 X141.957 Y109.968 E7.85715
G1 X142.156 Y110.647 E7.88069
G1 X142.284 Y111.125 E7.89715
G1 X142.441 Y111.771 E7.91926
G1 X142.543 Y112.237 E7.93512
G1 X142.683 Y112.952 E7.95936
G1 X142.766 Y113.433 E7.97559
G1 X142.854 Y114.026 E7.99553
G1 X142.918 Y114.539 E8.01273
G1 X142.986 Y115.227 E8.03572
G1 X143.058 Y116.267 E8.07039
G1 X143.087 Y116.998 E8.09473
G1 X143.092 Y117.502 E8.11149
G1 X143.083 Y118.141 E8.13274
G1 X143.063 Y118.666 E8.15022
G1 X142.986 Y119.765 E8.18686
G1 X142.891 Y120.681 E8.21749
G1 X142.83 Y121.149 E8.23319
G1 X142.756 Y121.631 E8.24941
G1 X142.638 Y122.296 E8.27187
G1 X142.545 Y122.761 E8.28764
G1 X142.39 Y123.453 E8.31123
G1 X142.269 Y123.939 E8.32789
G1 X142.093 Y124.581 E8.35003
G1 X141.956 Y125.038 E8.3659
G1 X141.742 Y125.7 E8.38904
G1 X141.58 Y126.164 E8.40538
G1 X141.326 Y126.841 E8.42943
G1 X141.137 Y127.312 E8.44631
G1 X140.9 Y127.862 E8.46623
G1 X140.69 Y128.318 E8.48293
G1 X140.378 Y128.957 E8.50658
G1 X140.007 Y129.67 E8.53331
G1 X139.504 Y130.556 E8.5672
G1 X139.052 Y131.291 E8.5959
G1 X138.55 Y132.046 E8.62605
G1 X138.128 Y132.64 E8.65029
G1 X137.892 Y132.955 E8.66338
G1 X137.247 Y133.771 E8.69798
G1 X136.687 Y134.431 E8.72676
G1 X136.356 Y134.802 E8.7433
G1 X136.022 Y135.159 E8.75956
G1 X135.609 Y135.581 E8.7792
G1 X135.242 Y135.938 E8.79623
G1 X134.419 Y136.693 E8.83338
G1 X134.01 Y137.046 E8.85135
G1 X133.419 Y137.531 E8.87677
G1 X133.114 Y137.768 E8.88962
G1 X132.309 Y138.368 E8.92301
G1 X131.975 Y138.604 E8.93662
G1 X131.56 Y138.882 E8.95323
G1 X131.01 Y139.233 E8.97493
G1 X130.554 Y139.509 E8.99266
G1 X129.95 Y139.853 E9.01578
G1 X129.04 Y140.337 E9.05006
G1 X128.375 Y140.666 E9.07474
G1 X127.904 Y140.881 E9.09196
G1 X127.273 Y141.151 E9.11478
G1 X126.852 Y141.321 E9.12989
G1 X126.257 Y141.546 E9.15104
G1 X125.74 Y141.726 E9.16925
G1 X124.774 Y142.03 E9.20293
G1 X124.099 Y142.222 E9.22627
G1 X123.41 Y142.4 E9.24994
G1 X122.904 Y142.513 E9.26719
G1 X122.325 Y142.628 E9.28682
G1 X121.188 Y142.82 E9.32517
G1 X120.526 Y142.912 E9.3474
G1 X120.013 Y142.966 E9.36456
G1 X118.983 Y143.044 E9.39892
G1 X118.295 Y143.076 E9.42182
G1 X117.504 Y143.092 E9.44814
G1 X117.036 Y143.088 E9.4637
G1 X116.382 Y143.068 E9.48547
G1 X115.883 Y143.041 E9.50209
G1 X115.164 Y142.985 E9.52607
G1 X114.678 Y142.936 E9.54232
G1 X113.995 Y142.851 E9.56521
G1 X113.517 Y142.78 E9.58128
G1 X112.862 Y142.668 E9.60339
G1 X112.386 Y142.576 E9.61951
G1 X111.686 Y142.423 E9.64334
G1 X111.207 Y142.306 E9.65974
G1 X110.52 Y142.122 E9.6834
G1 X110.036 Y141.98 E9.70017
G1 X109.41 Y141.78 E9.72203
G1 X108.984 Y141.634 E9.73701
G1 X108.409 Y141.423 E9.75738
G1 X107.9 Y141.221 E9.7756
G1 X106.9 Y140.788 E9.81184
G1 X106.407 Y140.557 E9.82995
G1 X105.718 Y140.213 E9.85556
G1 X104.754 Y139.686 E9.8921
G1 X104.441 Y139.505 E9.90413
G1 X103.91 Y139.18 E9.92483
G1 X103.231 Y138.741 E9.95173
G1 X102.615 Y138.319 E9.97656
G1 X102.233 Y138.041 E9.99228
G1 X101.676 Y137.615 E10.0156
G1 X101.291 Y137.306 E10.03202
G1 X100.78 Y136.876 E10.05423
G1 X100.42 Y136.558 E10.07021
G1 X99.882 Y136.062 E10.09455
G1 X99.532 Y135.724 E10.11073
G1 X99.063 Y135.25 E10.13291
G1 X98.721 Y134.888 E10.14947
G1 X98.296 Y134.416 E10.1706
G1 X97.958 Y134.022 E10.18786
G1 X97.556 Y133.529 E10.20902
G1 X96.874 Y132.642 E10.24623
G1 X96.453 Y132.06 E10.27012
G1 X96.178 Y131.654 E10.28643
G1 X95.796 Y131.06 E10.30992
G1 X95.554 Y130.664 E10.32536
G1 X95.206 Y130.067 E10.34834
G1 X94.973 Y129.645 E10.36438
G1 X94.66 Y129.047 E10.38682
G1 X94.431 Y128.583 E10.40403
G1 X94.139 Y127.952 E10.42716
G1 X93.946 Y127.507 E10.44329
G1 X93.681 Y126.858 E10.46661
G1 X93.508 Y126.407 E10.48267
G1 X93.274 Y125.75 E10.50587
G1 X93.119 Y125.279 E10.52236
G1 X92.924 Y124.638 E10.54465
G1 X92.8 Y124.196 E10.55992
G1 X92.627 Y123.524 E10.583
G1 X92.511 Y123.025 E10.60004
G1 X92.372 Y122.352 E10.62289
G1 X92.287 Y121.889 E10.63855
G1 X92.176 Y121.198 E10.66183
G1 X92.109 Y120.703 E10.67844
G1 X92.033 Y120.028 E10.70103
G1 X91.989 Y119.546 E10.71713
G1 X91.943 Y118.855 E10.74016
G1 X91.922 Y118.371 E10.75628
G1 X91.908 Y117.697 E10.7787
G0 F6000 X92.308 Y117.689
G1 F1200 X92.309 Y117.218 E10.79436
G1 X92.325 Y116.587 E10.81536
G1 X92.351 Y116.074 E10.83244
G1 X92.409 Y115.31 E10.85793
