;FLAVOR:Marlin
;TIME:3970
;Filament used: 3.12512m
;Layer height: 0.2
;MINX:91.5
;MINY:95.787
;MINZ:0.2
;MAXX:143.5
;MAXY:139.212
;MAXZ:30
;Generated with Cura_SteamEngine main
M82 ;absolute extrusion mode
; Ender 3 Custom Start G-code
G92 E0 ; Reset Extruder
G28 ; Home all axes
M104 S175 ; Start heating up the nozzle most of the way
M190 S60 ; Start heating the bed, wait until target temperature reached
M109 S200 ; Finish heating the nozzle
G1 Z2.0 F3000 ; Move Z Axis up little to prevent scratching of Heat Bed
G1 X0.1 Y20 Z0.3 F5000.0 ; Move to start position
G1 X0.1 Y200.0 Z0.3 F1500.0 E15 ; Draw the first line
G1 X0.4 Y200.0 Z0.3 F5000.0 ; Move to side a little
G1 X0.4 Y20 Z0.3 F1500.0 E30 ; Draw the second line
G92 E0 ; Reset Extruder
G1 Z2.0 F3000 ; Move Z Axis up little to prevent scratching of Heat Bed
G1 X5 Y20 Z0.3 F5000.0 ; Move over to prevent blob squish
G92 E0
G92 E0
G1 F1500 E-6.5
;LAYER_COUNT:150
;LAYER:0
M107
G0 F6000 X94.707 Y99.042 Z0.2
G0 X91.501 Y107.317
;TYPE:SKIRT
G1 F1500 E0
G1 F1200 X91.511 Y106.635 E0.02269
G1 X91.565 Y105.698 E0.0539
G1 X91.698 Y104.77 E0.08508
G1 X91.91 Y103.856 E0.11629
G1 X92.199 Y102.964 E0.14748
G1 X92.563 Y102.1 E0.17866
G1 X92.999 Y101.27 E0.20984
G1 X93.504 Y100.479 E0.24106
G1 X94.075 Y99.735 E0.27225
G1 X94.707 Y99.042 E0.30344
G1 X95.396 Y98.406 E0.33463
G1 X96.137 Y97.83 E0.36585
G1 X96.924 Y97.32 E0.39704
G1 X97.751 Y96.879 E0.42821
G1 X98.613 Y96.509 E0.45941
G1 X99.504 Y96.215 E0.49062
G1 X100.416 Y95.997 E0.5218
G1 X101.343 Y95.858 E0.55298
G1 X102.201 Y95.8 E0.58158
G1 X102.83 Y95.787 E0.60251
G1 X131.952 Y95.789 E1.57111
G1 X132.649 Y95.799 E1.59429
G1 X133.585 Y95.853 E1.62548
G1 X134.514 Y95.986 E1.65669
G1 X135.427 Y96.197 E1.68786
G1 X136.32 Y96.486 E1.71908
G1 X137.184 Y96.849 E1.75025
G1 X138.014 Y97.285 E1.78143
G1 X138.805 Y97.79 E1.81264
G1 X139.549 Y98.361 E1.84384
G1 X140.242 Y98.993 E1.87503
G1 X140.879 Y99.682 E1.90624
G1 X141.455 Y100.422 E1.93743
G1 X141.965 Y101.209 E1.96862
G1 X142.407 Y102.036 E1.99981
G1 X142.776 Y102.898 E2.031
G1 X143.071 Y103.788 E2.06218
G1 X143.289 Y104.7 E2.09337
G1 X143.429 Y105.628 E2.12458
G1 X143.487 Y106.489 E2.15329
G1 X143.5 Y107.118 E2.17421
G1 X143.499 Y127.627 E2.85634
G1 X143.489 Y128.354 E2.88053
G1 X143.436 Y129.291 E2.91174
G1 X143.304 Y130.219 E2.94292
G1 X143.093 Y131.133 E2.97412
G1 X142.804 Y132.025 E3.0053
G1 X142.441 Y132.89 E3.0365
G1 X142.006 Y133.721 E3.0677
G1 X141.501 Y134.511 E3.09889
G1 X140.931 Y135.256 E3.13008
G1 X140.3 Y135.95 E3.16128
G1 X139.611 Y136.587 E3.19249
G1 X138.871 Y137.163 E3.22368
G1 X138.085 Y137.674 E3.25486
G1 X137.258 Y138.116 E3.28605
G1 X136.396 Y138.486 E3.31725
G1 X135.506 Y138.781 E3.34844
G1 X134.594 Y139 E3.37963
G1 X133.667 Y139.14 E3.41081
G1 X132.799 Y139.199 E3.43975
G1 X132.17 Y139.212 E3.46067
G1 X103.064 Y139.21 E4.42874
G1 X102.368 Y139.201 E4.4519
G1 X101.431 Y139.149 E4.48311
G1 X100.503 Y139.017 E4.51428
G1 X99.589 Y138.807 E4.54548
G1 X98.696 Y138.52 E4.57667
G1 X97.831 Y138.157 E4.60787
G1 X97 Y137.722 E4.63907
G1 X96.209 Y137.219 E4.67025
G1 X95.464 Y136.649 E4.70145
G1 X94.77 Y136.018 E4.73264
G1 X94.132 Y135.33 E4.76385
G1 X93.555 Y134.591 E4.79504
G1 X93.044 Y133.805 E4.82622
G1 X92.601 Y132.978 E4.85742
G1 X92.23 Y132.117 E4.8886
G1 X91.934 Y131.227 E4.9198
G1 X91.715 Y130.315 E4.951
G1 X91.574 Y129.388 E4.98218
G1 X91.515 Y128.536 E5.01059
G1 X91.5 Y127.873 E5.03265
G1 X91.501 Y107.317 E5.71634
G0 F6000 X91.901 Y107.323
G1 F1200 X91.911 Y106.641 E5.73903
G1 X91.965 Y105.721 E5.76968
G1 X92.098 Y104.811 E5.80027
G1 X92.309 Y103.914 E5.83092
G1 X92.598 Y103.04 E5.86153
G1 X92.961 Y102.194 E5.89215
G1 X93.396 Y101.383 E5.92276
G1 X93.9 Y100.613 E5.95337
G1 X94.469 Y99.889 E5.984
G1 X95.099 Y99.217 E6.01463
G1 X95.785 Y98.603 E6.04525
G1 X96.521 Y98.05 E6.07587
G1 X97.302 Y97.563 E6.10649
G1 X98.123 Y97.146 E6.13711
G1 X98.977 Y96.802 E6.16773
G1 X99.858 Y96.533 E6.19837
G1 X100.758 Y96.342 E6.22897
G1 X101.672 Y96.229 E6.2596
G1 X102.212 Y96.2 E6.27759
G1 X102.83 Y96.187 E6.29815
G1 X131.946 Y96.189 E7.26655
G1 X132.643 Y96.199 E7.28974
G1 X133.562 Y96.252 E7.32035
G1 X134.473 Y96.385 E7.35098
G1 X135.369 Y96.596 E7.38159
G1 X136.244 Y96.884 E7.41223
G1 X137.09 Y97.248 E7.44286
G1 X137.901 Y97.683 E7.47347
G1 X138.672 Y98.186 E7.50409
G1 X139.396 Y98.755 E7.53472
G1 X140.067 Y99.385 E7.56533
G1 X140.682 Y100.07 E7.59595
G1 X141.235 Y100.806 E7.62657
G1 X141.722 Y101.588 E7.65721
G1 X142.139 Y102.408 E7.6878
G1 X142.484 Y103.262 E7.71844
G1 X142.753 Y104.142 E7.74905
G1 X142.945 Y105.043 E7.77969
G1 X143.058 Y105.957 E7.81032
G1 X143.087 Y106.5 E7.8284
G1 X143.1 Y107.118 E7.84896
G1 X143.099 Y127.622 E8.53093
G1 X143.089 Y128.349 E8.55511
G1 X143.036 Y129.268 E8.58573
G1 X142.904 Y130.179 E8.61634
G1 X142.693 Y131.075 E8.64696
G1 X142.406 Y131.95 E8.67759
G1 X142.043 Y132.796 E8.70821
G1 X141.609 Y133.608 E8.73883
G1 X141.105 Y134.379 E8.76947
G1 X140.537 Y135.103 E8.80007
G1 X139.908 Y135.775 E8.83069
G1 X139.223 Y136.39 E8.86131
G1 X138.487 Y136.943 E8.89192
G1 X137.706 Y137.431 E8.92255
G1 X136.886 Y137.849 E8.95317
G1 X136.032 Y138.194 E8.9838
G1 X135.152 Y138.463 E9.01441
G1 X134.251 Y138.656 E9.04505
G1 X133.338 Y138.769 E9.07565
G1 X132.788 Y138.799 E9.09397
G1 X132.17 Y138.812 E9.11453
G1 X103.069 Y138.81 E10.08244
G1 X102.373 Y138.801 E10.10559
G1 X101.454 Y138.749 E10.1362
G1 X100.543 Y138.618 E10.16681
G1 X99.646 Y138.408 E10.19745
G1 X98.771 Y138.121 E10.22808
G1 X97.925 Y137.759 E10.25869
G1 X97.113 Y137.325 E10.28931
G1 X96.342 Y136.822 E10.31993
G1 X95.617 Y136.255 E10.35054
G1 X94.944 Y135.626 E10.38118
G1 X94.328 Y134.942 E10.4118
G1 X93.774 Y134.206 E10.44243
G1 X93.286 Y133.426 E10.47304
G1 X92.868 Y132.605 E10.50368
G1 X92.522 Y131.752 E10.53429
G1 X92.252 Y130.872 E10.56491
G1 X92.059 Y129.972 E10.59553
G1 X91.945 Y129.058 E10.62616
G1 X91.915 Y128.524 E10.64395
G1 X91.9 Y127.873 E10.66561
G1 X91.901 Y107.323 E11.3491
G0 F6000 X92.301 Y107.328
G1 F1200 X92.311 Y106.646 E11.37179
G1 X92.364 Y105.745 E11.40181
G1 X92.497 Y104.852 E11.43184
G1 X92.708 Y103.974 E11.46187
G1 X92.996 Y103.118 E11.49191
G1 X93.359 Y102.291 E11.52195
G1 X93.793 Y101.499 E11.55199
G1 X94.296 Y100.749 E11.58202
G1 X94.863 Y100.046 E11.61206
G1 X95.49 Y99.396 E11.6421
G1 X96.172 Y98.804 E11.67214
G1 X96.904 Y98.275 E11.70218
G1 X97.68 Y97.812 E11.73223
G1 X98.493 Y97.42 E11.76225
G1 X99.339 Y97.102 E11.79231
G1 X100.208 Y96.859 E11.82232
G1 X101.096 Y96.694 E11.85236
G1 X102.223 Y96.6 E11.88998
G1 X102.83 Y96.587 E11.91017
G1 X131.94 Y96.589 E12.87837
G1 X132.637 Y96.599 E12.90156
G1 X133.539 Y96.652 E12.93161
G1 X134.432 Y96.784 E12.96163
G1 X135.31 Y96.995 E12.99167
G1 X136.166 Y97.283 E13.02171
G1 X136.994 Y97.646 E13.05178
G1 X137.785 Y98.08 E13.08179
G1 X138.536 Y98.582 E13.11183
G1 X139.239 Y99.149 E13.14187
G1 X139.889 Y99.776 E13.17191
G1 X140.481 Y100.458 E13.20194
G1 X141.011 Y101.189 E13.23198
G1 X141.473 Y101.965 E13.26201
G1 X141.866 Y102.778 E13.29205
G1 X142.184 Y103.623 E13.32208
G1 X142.427 Y104.493 E13.35212
G1 X142.592 Y105.381 E13.38216
G1 X142.687 Y106.511 E13.41988
G1 X142.7 Y107.118 E13.44007
G1 X142.699 Y127.616 E14.12184
G1 X142.689 Y128.343 E14.14602
G1 X142.637 Y129.245 E14.17607
G1 X142.505 Y130.138 E14.20609
G1 X142.294 Y131.017 E14.23616
G1 X142.007 Y131.873 E14.26619
G1 X141.645 Y132.7 E14.29621
G1 X141.211 Y133.492 E14.32625
G1 X140.709 Y134.243 E14.3563
G1 X140.143 Y134.946 E14.38632
G1 X139.516 Y135.597 E14.41638
G1 X138.835 Y136.189 E14.44639
G1 X138.104 Y136.719 E14.47642
G1 X137.328 Y137.182 E14.50648
G1 X136.515 Y137.575 E14.53651
G1 X135.67 Y137.895 E14.56656
G1 X134.801 Y138.138 E14.59657
G1 X133.913 Y138.303 E14.62661
G1 X132.777 Y138.399 E14.66453
G1 X132.17 Y138.412 E14.68473
G1 X103.074 Y138.41 E15.65246
G1 X102.378 Y138.401 E15.67561
G1 X101.476 Y138.35 E15.70566
G1 X100.583 Y138.218 E15.73569
G1 X99.705 Y138.009 E15.76571
G1 X98.848 Y137.722 E15.79576
G1 X98.02 Y137.361 E15.82581
G1 X97.228 Y136.928 E15.85583
G1 X96.477 Y136.426 E15.88587
G1 X95.773 Y135.86 E15.91592
G1 X95.122 Y135.235 E15.94593
G1 X94.529 Y134.553 E15.97599
G1 X93.998 Y133.823 E16.00602
G1 X93.535 Y133.048 E16.03604
G1 X93.141 Y132.235 E16.06609
G1 X92.821 Y131.39 E16.09614
G1 X92.577 Y130.521 E16.12617
G1 X92.411 Y129.633 E16.15621
G1 X92.315 Y128.512 E16.19363
G1 X92.3 Y127.873 E16.21489
G1 X92.301 Y107.328 E16.89822
G1 F1500 E10.39822
G0 F6000 X104.7 Y108.987
G1 F1500 E16.89822
G1 F1200 X130.3 Y108.988 E17.74968
G1 X130.3 Y109.262 E17.75879
G1 X104.7 Y109.262 E18.61025
G1 X104.7 Y108.987 E18.6194
G0 F6000 X104.3 Y108.587
G1 F1200 X130.7 Y108.588 E19.49747
G1 X130.7 Y109.662 E19.53319
G1 X104.3 Y109.662 E20.41126
G1 X104.3 Y108.587 E20.44701
G0 F6000 X103.9 Y108.187
G1 F1200 X131.1 Y108.188 E21.35169
G1 X131.1 Y110.062 E21.41402
G1 X103.9 Y110.062 E22.31869
G1 X103.9 Y108.187 E22.38106
G0 F6000 X103.5 Y107.787
G1 F1200 X131.5 Y107.788 E23.31234
G1 X131.5 Y110.462 E23.40128
G1 X103.5 Y110.462 E24.33256
G1 X103.5 Y107.787 E24.42153
G0 F6000 X103.1 Y107.387
G1 F1200 X131.9 Y107.388 E25.37942
G1 X131.9 Y110.862 E25.49497
G1 X103.1 Y110.862 E26.45286
G1 X103.1 Y107.387 E26.56844
G0 F6000 X102.7 Y106.987
G1 F1200 X132.3 Y106.988 E27.55294
G1 X132.3 Y111.262 E27.69509
G1 X102.7 Y111.262 E28.67959
G1 X102.7 Y106.987 E28.82178
G1 F1500 E22.32178
G0 F6000 X101.847 Y110.809
G0 X101.847 Y124.189
G0 X102.7 Y124.202
G0 X102.7 Y123.736
G1 F1500 E28.82178
G1 F1200 X132.3 Y123.737 E29.80628
G1 X132.3 Y128.012 E29.94847
G1 X102.7 Y128.011 E30.93297
G1 X102.7 Y123.736 E31.07515
G0 F6000 X103.1 Y124.136
G1 F1200 X131.9 Y124.137 E32.03305
G1 X131.9 Y127.612 E32.14863
G1 X103.1 Y127.611 E33.10652
G1 X103.1 Y124.136 E33.2221
G0 F6000 X103.5 Y124.536
G1 F1200 X131.5 Y124.537 E34.15338
G1 X131.5 Y127.212 E34.24235
G1 X103.5 Y127.211 E35.17364
G1 X103.5 Y124.536 E35.26261
G0 F6000 X103.9 Y124.936
G1 F1200 X131.1 Y124.937 E36.16728
G1 X131.1 Y126.812 E36.22964
G1 X103.9 Y126.811 E37.13432
G1 X103.9 Y124.936 E37.19668
G0 F6000 X104.3 Y125.336
G1 F1200 X130.7 Y125.337 E38.07475
G1 X130.7 Y126.412 E38.11051
G1 X104.3 Y126.411 E38.98857
G1 X104.3 Y125.336 E39.02433
G0 F6000 X104.7 Y125.736
G1 F1200 X130.3 Y125.737 E39.87579
G1 X130.3 Y126.012 E39.88493
G1 X104.7 Y126.011 E40.73639
G1 X104.7 Y125.736 E40.74554
G1 F1500 E34.24554
G0 F6000 X101.847 Y124.189
G0 X101.835 Y120.683
G0 X102.7 Y120.683
;TYPE:SUPPORT-INTERFACE
G1 F1500 E40.74554
G1 F1200 X132.3 Y120.684 E41.73004
G1 X132.3 Y123.337 E41.81828
G1 X102.7 Y123.336 E42.80278
G1 X102.7 Y120.683 E42.89102
G1 F1500 E36.39102
G0 F6000 X102.7 Y119.818
G0 X102.7 Y115.18
G0 X102.7 Y114.315
G1 F1500 E42.89102
G1 F1200 X102.7 Y111.662 E42.97926
G1 X132.3 Y111.662 E43.96376
G1 X132.3 Y114.315 E44.052
G1 X102.7 Y114.315 E45.0365
G0 F6000 X103.108 Y114.115
G1 F1200 X105.361 Y111.861 E45.14249
G0 F6000 X105.073 Y111.862
G1 F1200 X107.326 Y114.114 E45.24844
G0 F6000 X106.502 Y114.115
G1 F1200 X108.755 Y111.861 E45.35444
G0 F6000 X108.468 Y111.862
G1 F1200 X110.72 Y114.114 E45.46037
G0 F6000 X109.896 Y114.115
G1 F1200 X112.149 Y111.861 E45.56637
G0 F6000 X111.862 Y111.862
G1 F1200 X114.114 Y114.114 E45.67229
G0 F6000 X113.29 Y114.115
G1 F1200 X115.544 Y111.861 E45.77832
G0 F6000 X115.256 Y111.862
G1 F1200 X117.508 Y114.114 E45.88424
G0 F6000 X116.684 Y114.115
G1 F1200 X118.938 Y111.861 E45.99026
G0 F6000 X118.65 Y111.862
G1 F1200 X120.902 Y114.114 E46.09619
G0 F6000 X120.078 Y114.115
G1 F1200 X122.332 Y111.861 E46.20221
G0 F6000 X122.044 Y111.862
G1 F1200 X124.296 Y114.114 E46.30814
G0 F6000 X123.472 Y114.115
G1 F1200 X125.726 Y111.861 E46.41416
G0 F6000 X125.438 Y111.862
G1 F1200 X127.69 Y114.114 E46.52009
G0 F6000 X126.866 Y114.115
G1 F1200 X129.12 Y111.861 E46.62611
G0 F6000 X128.832 Y111.862
G1 F1200 X131.084 Y114.114 E46.73204
G0 F6000 X130.261 Y114.115
G1 F1200 X132.099 Y112.276 E46.81851
G1 F1500 E40.31851
G0 F6000 X131.066 Y120.884
G1 F1500 E46.81851
G1 F1200 X132.098 Y121.916 E46.86706
G0 F6000 X132.098 Y122.459
G1 F1200 X131.421 Y123.136 E46.8989
G0 F6000 X129.924 Y123.136
G1 F1200 X127.672 Y120.884 E47.00483
G0 F6000 X126.886 Y120.883
G1 F1200 X124.633 Y123.136 E47.1108
G0 F6000 X123.136 Y123.136
G1 F1200 X120.883 Y120.883 E47.21678
G0 F6000 X120.099 Y120.882
G1 F1200 X117.845 Y123.136 E47.3228
G0 F6000 X116.347 Y123.135
G1 F1200 X114.095 Y120.883 E47.42872
G0 F6000 X113.311 Y120.882
G1 F1200 X111.057 Y123.136 E47.53474
G0 F6000 X109.559 Y123.135
G1 F1200 X107.306 Y120.882 E47.64072
G0 F6000 X106.523 Y120.882
G1 F1200 X104.269 Y123.136 E47.74674
G0 F6000 X106.165 Y123.135
G1 F1200 X103.912 Y120.882 E47.85271
G0 F6000 X103.129 Y120.882
G1 F1200 X102.9 Y121.111 E47.86349
G1 F1500 E41.36349
G0 F6000 X101.835 Y121.111
G0 X101.847 Y124.189
G0 X107.663 Y124.202
G0 X107.663 Y123.136
G1 F1500 E47.86349
G1 F1200 X109.917 Y120.882 E47.96951
G0 F6000 X110.7 Y120.882
G1 F1200 X112.953 Y123.135 E48.07548
G0 F6000 X114.451 Y123.136
G1 F1200 X116.705 Y120.882 E48.1815
G0 F6000 X117.489 Y120.883
G1 F1200 X119.742 Y123.136 E48.28748
G0 F6000 X121.239 Y123.136
G1 F1200 X123.492 Y120.883 E48.39345
G0 F6000 X124.278 Y120.884
G1 F1200 X126.53 Y123.136 E48.49938
G0 F6000 X128.027 Y123.136
G1 F1200 X130.28 Y120.883 E48.60535
G1 F1500 E42.10535
G0 F6000 X130.28 Y119.818
G0 X103.931 Y115.18
G0 X103.931 Y114.114
G1 F1500 E48.60535
G1 F1200 X102.899 Y113.081 E48.65392
G1 F1500 E42.15392
;MESH:Cylinder001mmTol.stl
G0 F6000 X102.914 Y116.187
G0 X103.101 Y118.626
;TYPE:WALL-INNER
G1 F1500 E48.65392
G1 F1200 X131.9 Y118.627 E49.61178
G1 X131.9 Y117.5 E49.64926
G1 X131.9 Y116.373 E49.68675
G1 X103.101 Y116.374 E50.6446
G1 X103.101 Y118.626 E50.71951
G0 F6000 X102.701 Y119.026
;TYPE:WALL-OUTER
G1 F1200 X132.3 Y119.027 E51.70397
G1 X132.3 Y117.5 E51.75476
G1 X132.3 Y115.973 E51.80555
G1 X102.701 Y115.974 E52.79002
G1 X102.701 Y119.026 E52.89153
G0 F6000 X102.97 Y118.756
G0 X103.201 Y118.266
G0 X103.461 Y118.266
;TYPE:SKIN
G1 F1200 X131.54 Y118.267 E53.82544
G1 X131.54 Y117.5 E53.85095
G1 X131.54 Y116.733 E53.87646
G1 X103.461 Y116.734 E54.81037
G1 X103.461 Y118.266 E54.86132
G0 F6000 X103.922 Y118.064
G1 F1200 X103.661 Y117.803 E54.8736
G0 F6000 X103.661 Y117.237
G1 F1200 X104.488 Y118.064 E54.9125
G0 F6000 X105.054 Y118.064
G1 F1200 X103.922 Y116.933 E54.96572
G0 F6000 X104.488 Y116.933
G1 F1200 X105.619 Y118.064 E55.01892
G0 F6000 X106.185 Y118.064
G1 F1200 X105.054 Y116.933 E55.07212
G0 F6000 X105.619 Y116.933
G1 F1200 X106.751 Y118.064 E55.12534
G0 F6000 X107.316 Y118.064
G1 F1200 X106.185 Y116.933 E55.17854
G0 F6000 X106.751 Y116.933
G1 F1200 X107.882 Y118.064 E55.23174
G0 F6000 X108.448 Y118.064
G1 F1200 X107.316 Y116.933 E55.28496
G0 F6000 X107.882 Y116.933
G1 F1200 X109.013 Y118.064 E55.33816
G0 F6000 X109.579 Y118.064
G1 F1200 X108.448 Y116.933 E55.39136
G0 F6000 X109.013 Y116.933
G1 F1200 X110.145 Y118.064 E55.44458
G0 F6000 X110.711 Y118.064
G1 F1200 X109.579 Y116.933 E55.4978
G0 F6000 X110.145 Y116.933
G1 F1200 X111.276 Y118.064 E55.551
G0 F6000 X111.842 Y118.064
G1 F1200 X110.711 Y116.933 E55.6042
G0 F6000 X111.276 Y116.933
G1 F1200 X112.408 Y118.064 E55.65742
G0 F6000 X112.974 Y118.065
G1 F1200 X111.842 Y116.933 E55.71067
G0 F6000 X112.408 Y116.933
G1 F1200 X113.54 Y118.065 E55.76392
G0 F6000 X114.105 Y118.065
G1 F1200 X112.973 Y116.933 E55.81716
G0 F6000 X113.539 Y116.933
G1 F1200 X114.671 Y118.065 E55.87041
G0 F6000 X115.237 Y118.065
G1 F1200 X114.105 Y116.933 E55.92365
G0 F6000 X114.67 Y116.933
G1 F1200 X115.802 Y118.065 E55.9769
G0 F6000 X116.368 Y118.065
